; generated by PrusaSlicer 2.9.2 on 2025-11-04 at 13:30:37 UTC


;
;
; 

; external perimeters extrusion width = 0.45mm
; perimeters extrusion width = 0.45mm
; infill extrusion width = 0.45mm
; solid infill extrusion width = 0.45mm
; top infill extrusion width = 0.45mm
; support material extrusion width = 0.35mm
; first layer extrusion width = 0.45mm

M73 P0 R9
M73 Q0 S9
M201 X1000 Y1000 Z200 E5000 ; sets maximum accelerations, mm/sec^2
M203 X200 Y200 Z12 E120 ; sets maximum feedrates, mm / sec
M204 S1250 T1250 ; sets acceleration (S) and retract acceleration (R), mm/sec^2
M205 X8.00 Y8.00 Z0.40 E4.50 ; sets the jerk limits, mm/sec
M205 S0 T0 ; sets the minimum extruding and travel feed rate, mm/sec

; printing object vertical_connector id:0 copy 0
; stop printing object vertical_connector id:0 copy 0

;TYPE:Custom
M862.3 P "MK3S" ; printer model check
M862.1 P0.4 ; nozzle diameter check
M115 U3.13.2 ; tell printer latest fw version
G90 ; use absolute coordinates
M83 ; extruder relative mode
M104 S200 ; set extruder temp
M140 S55 ; set bed temp
M190 S55 ; wait for bed temp
M109 S200 ; wait for extruder temp
G28 W ; home all without mesh bed level
G80 X114.731 Y85.7512 W22.3181 H30.848 ; mesh bed levelling

G1 Z0.2 F720
G1 Y-3 F1000 ; go outside print area
G92 E0
G1 X60 E9 F1000 ; intro line
G1 X100 E12.5 F1000 ; intro line

G92 E0
M221 S95

; Don't change E values below. Excessive value can damage the printer.
M907 E430 ; set extruder motor current
G21 ; set units to millimeters
G90 ; use absolute coordinates
M83 ; use relative distances for extrusion
M900 K0.05 ; Filament gcode LA 1.5
M900 K30 ; Filament gcode LA 1.0

M107
;LAYER_CHANGE
;Z:0.15
;HEIGHT:0.15
G1 E-.8 F2100
M73 P1 R9
M73 Q1 S9
G1 Z.55 F10800
G1 X118.255 Y89.756
G1 Z.15
G1 E.8 F2100
M204 S1000
;TYPE:Skirt/Brim
;WIDTH:0.45
G1 F2400
G1 X119.404 Y88.451 E.0453
G1 X121.145 Y87.195 E.05594
G1 X122.85 Y86.487 E.0481
G1 X124.328 Y86.172 E.03938
G1 X127.083 Y85.959 E.072
G1 X128.39 Y86.195 E.03461
G1 X130.902 Y87.36 E.07215
G1 X132.361 Y88.259 E.04465
G1 X133.432 Y89.242 E.03788
G1 X135.059 Y91.325 E.06887
G1 X135.542 Y92.407 E.03087
G1 X136.791 Y98.822 E.17029
G1 X136.84 Y102.624 E.09907
G1 X136.694 Y103.487 E.02281
G1 X134.246 Y110.529 E.19426
G1 X133.638 Y111.83 E.03742
G1 X132.729 Y113.153 E.04182
G1 X131.598 Y114.291 E.0418
G1 X129.868 Y115.433 E.05401
G1 X128.824 Y115.879 E.02958
G1 X127.269 Y116.277 E.04182
G1 X125.198 Y116.369 E.05401
G1 X123.614 Y116.112 E.04181
G1 X122.535 Y115.761 E.02956
G1 X121.102 Y115.038 E.04182
G1 X119.482 Y113.746 E.05399
G1 X118.735 Y112.891 E.02958
G1 X117.876 Y111.536 E.0418
G1 X117.186 Y109.773 E.04933
G1 X115.133 Y101.701 E.21702
G1 X114.942 Y100.214 E.03906
G1 X115.051 Y98.532 E.04392
G1 X115.508 Y96.908 E.04396
G1 X117.34 Y91.369 E.15201
G1 X118.226 Y89.808 E.04677
G1 X118.588 Y90.015 F10800
G1 F2400
G1 X118.61 Y89.976 E.00117
G1 X119.71 Y88.736 E.04319
G1 X121.325 Y87.572 E.05187
G1 X122.945 Y86.894 E.04576
G1 X124.36 Y86.589 E.03772
G1 X127.115 Y86.376 E.072
G1 X128.214 Y86.574 E.0291
G1 X130.726 Y87.739 E.07215
G1 X132.086 Y88.574 E.04158
G1 X133.109 Y89.506 E.03606
G1 X134.725 Y91.577 E.06845
G1 X135.132 Y92.487 E.02597
G1 X136.381 Y98.902 E.17029
G1 X136.422 Y102.624 E.09699
G1 X136.3 Y103.349 E.01916
G1 X133.851 Y110.392 E.19429
G1 X133.262 Y111.649 E.03617
G1 X132.391 Y112.907 E.03987
G1 X131.309 Y113.989 E.03987
G1 X129.703 Y115.049 E.05014
G1 X128.659 Y115.495 E.02958
G1 X127.176 Y115.869 E.03985
G1 X125.254 Y115.955 E.05013
G1 X123.744 Y115.715 E.03984
G1 X122.664 Y115.364 E.02959
G1 X121.3 Y114.67 E.03988
G1 X119.796 Y113.471 E.05012
G1 X119.05 Y112.616 E.02957
G1 X118.234 Y111.322 E.03986
G1 X117.591 Y109.67 E.04619
G1 X115.537 Y101.598 E.21702
G1 X115.357 Y100.168 E.03755
G1 X115.467 Y98.573 E.04166
G1 X115.906 Y97.035 E.04167
G1 X117.737 Y91.5 E.1519
G1 X118.558 Y90.067 E.04303
;WIPE_START
G1 F8640
G1 X118.588 Y90.015 E-.01386
G1 X118.61 Y89.976 E-.01034
G1 X119.71 Y88.736 E-.38274
G1 X121.091 Y87.74 E-.39306
;WIPE_END
G1 Z.55 F10800
; printing object vertical_connector id:0 copy 0
G1 X128.206 Y89.238
M73 Q2 S9
G1 Z.15
G1 E.8 F2100
;TYPE:Support material
G1 F2400
M73 P2 R9
G1 X128.95 Y89.406 E.01987
G1 X129.797 Y89.743 E.02375
G1 X130.635 Y90.239 E.02537
G1 X131.399 Y90.904 E.02639
G1 X132.047 Y91.698 E.0267
G1 X132.391 Y92.305 E.01818
G1 X132.964 Y92.909 E.02169
G1 X133.177 Y94.38 E.03873
G1 X133.046 Y95.588 E.03166
G1 X132.685 Y96.685 E.03009
G1 X132.349 Y97.263 E.01742
G1 X130.516 Y95.817 E.06083
G1 X130.136 Y95.746 E.01007
G1 X129.783 Y95.904 E.01008
G1 X129.565 Y96.346 E.01284
G1 X129.563 Y98.824 E.06457
G1 X125.827 Y98.824 E.09734
G1 X125.563 Y99.088 E.00973
G1 X125.563 Y100.46 E.03575
G1 X125.827 Y100.724 E.00973
G1 X128.334 Y100.724 E.06532
G1 X128.241 Y101.224 E.01325
G1 X125.827 Y101.224 E.0629
G1 X125.563 Y101.488 E.00973
G1 X125.563 Y102.86 E.03575
G1 X125.827 Y103.124 E.00973
G1 X129.563 Y103.124 E.09734
G1 X129.565 Y105.603 E.06459
G1 X129.784 Y106.044 E.01283
G1 X130.1 Y106.197 E.00915
G1 X130.484 Y106.147 E.01009
G1 X131.751 Y105.162 E.04182
G1 X132.068 Y106.31 E.03103
G1 X132.169 Y107.441 E.02959
G1 X132.067 Y108.572 E.02959
G1 X131.765 Y109.667 E.0296
G1 X131.272 Y110.69 E.02959
G1 X130.604 Y111.608 E.02958
G1 X129.783 Y112.392 E.02958
G1 X128.836 Y113.017 E.02956
G1 X127.792 Y113.463 E.02958
G1 X126.685 Y113.716 E.02959
G1 X125.551 Y113.766 E.02958
G1 X124.426 Y113.614 E.02958
G1 X123.347 Y113.263 E.02956
G1 X122.347 Y112.725 E.02959
G1 X121.46 Y112.018 E.02955
G1 X120.713 Y111.163 E.02958
G1 X120.131 Y110.188 E.02959
G1 X119.731 Y109.126 E.02957
G1 X119.528 Y108.009 E.02958
G1 X119.528 Y106.874 E.02957
G1 X119.731 Y105.757 E.02958
G1 X120.189 Y104.535 E.034
G1 X119.37 Y103.946 E.02629
G1 X118.608 Y103.109 E.02949
G1 X118.036 Y102.13 E.02954
G1 X117.678 Y101.053 E.02957
G1 X117.553 Y99.924 E.0296
G1 X117.665 Y98.791 E.02967
G1 X118.011 Y97.706 E.02967
G1 X118.576 Y96.716 E.0297
G1 X119.336 Y95.866 E.02971
G1 X119.795 Y95.53 E.01482
G1 X119.692 Y94.87 E.0174
G1 X119.834 Y92.194 E.06982
G1 X120.488 Y91.14 E.03232
G1 X121.324 Y90.244 E.03193
G1 X122.276 Y89.565 E.03047
G1 X122.988 Y89.226 E.02055
G1 X124.531 Y88.791 E.04177
G1 X125.667 Y88.749 E.02962
G1 X126.589 Y88.885 E.02428
G1 X127.285 Y88.578 E.01982
G1 X128.155 Y89.201 E.02788
G1 X132.434 Y96.741 F10800
G1 F2400
G1 X132.434 Y92.898 E.10013
G1 X131.97 Y92.325 E.01921
G1 X131.97 Y96.48 E.10826
G1 X131.506 Y96.11 E.01546
G1 X131.506 Y91.63 E.11673
G1 X131.042 Y91.092 E.01851
G1 X131.042 Y95.74 E.12111
G1 X130.577 Y95.433 E.01452
G1 X130.577 Y90.688 E.12363
G1 X130.113 Y90.367 E.0147
G1 X130.113 Y95.371 E.13038
G1 X129.649 Y95.535 E.01282
G1 X129.649 Y90.092 E.14182
G1 X129.185 Y89.904 E.01304
G1 X129.185 Y98.448 E.22262
G1 X128.721 Y98.448 E.01209
G1 X128.721 Y89.739 E.22692
G1 X128.256 Y89.635 E.01242
G1 X128.256 Y98.448 E.22963
G1 X127.792 Y98.448 E.01209
G1 X127.792 Y89.404 E.23565
G1 X127.328 Y89.071 E.01488
G1 X127.328 Y98.448 E.24432
G1 X126.864 Y98.448 E.01209
G1 X126.864 Y89.175 E.24162
G1 X126.635 Y89.276 E.00652
M73 Q3 S9
G1 X126.399 Y89.233 E.00625
G1 X126.399 Y98.448 E.2401
G1 X125.935 Y98.448 E.01209
M73 P3 R9
G1 X125.935 Y89.163 E.24193
G1 X125.471 Y89.133 E.01212
G1 X125.471 Y98.648 E.24792
G1 X125.187 Y98.932 E.01046
G1 X125.187 Y100.616 E.04388
G1 X125.471 Y100.9 E.01046
G1 X125.471 Y101.048 E.00386
G1 X125.187 Y101.332 E.01046
G1 X125.187 Y103.016 E.04388
G1 X125.471 Y103.3 E.01046
G1 X125.471 Y113.376 E.26254
G1 X125.935 Y113.373 E.01209
G1 X125.935 Y103.5 E.25725
G1 X126.399 Y103.5 E.01209
G1 X126.399 Y113.352 E.2567
G1 X126.864 Y113.289 E.01223
G1 X126.864 Y103.5 E.25506
G1 X127.328 Y103.5 E.01209
G1 X127.328 Y113.183 E.2523
G1 X127.792 Y113.054 E.01255
G1 X127.792 Y103.5 E.24894
G1 X128.256 Y103.5 E.01209
G1 X128.256 Y112.856 E.24378
G1 X128.721 Y112.643 E.01333
G1 X128.721 Y103.5 E.23823
G1 X129.185 Y103.5 E.01209
G1 X129.185 Y112.337 E.23025
G1 X129.649 Y112.001 E.01493
G1 X129.649 Y106.413 E.1456
G1 X130.113 Y106.578 E.01283
G1 X130.113 Y111.557 E.12973
G1 X130.577 Y111.005 E.01879
G1 X130.577 Y106.515 E.11699
G1 X131.042 Y106.208 E.01452
G1 X131.042 Y110.301 E.10665
G1 X131.506 Y109.192 E.03132
G1 X131.506 Y105.598 E.09364
G1 X125.007 Y113.503 F10800
G1 F2400
G1 X125.007 Y89.15 E.63454
G1 X124.542 Y89.175 E.01213
G1 X124.542 Y113.25 E.62729
G1 X124.078 Y113.105 E.01267
M73 P4 R9
M73 Q4 S9
G1 X124.078 Y89.283 E.6207
G1 X123.614 Y89.392 E.01242
G1 X123.614 Y112.955 E.61395
G1 X123.15 Y112.73 E.01344
G1 X123.15 Y89.566 E.60356
G1 X122.686 Y89.787 E.01339
G1 X122.686 Y112.48 E.59128
G1 X122.221 Y112.144 E.01495
G1 X122.221 Y90.066 E.57526
G1 X121.757 Y90.397 E.01485
G1 X121.757 Y111.774 E.55699
G1 X121.293 Y111.255 E.01814
G1 X121.293 Y90.828 E.53224
G1 X120.829 Y91.325 E.01772
G1 X120.829 Y110.624 E.50285
G1 X120.364 Y109.742 E.02598
G1 X120.364 Y105.137 E.11999
G1 X120.642 Y104.398 E.02057
G1 X120.364 Y104.198 E.00892
G1 X120.364 Y92.052 E.31647
G1 X120.206 Y92.307 E.00782
G1 X120.084 Y93.886 E.04126
G1 X120.069 Y94.844 E.02496
G1 X120.201 Y95.699 E.02254
G1 X119.9 Y95.919 E.00971
G1 X119.9 Y103.864 E.20701
G1 X119.436 Y103.459 E.01605
M73 Q5 S9
G1 X119.436 Y96.318 E.18606
G1 X118.972 Y96.838 E.01816
M73 P5 R9
G1 X118.972 Y102.949 E.15923
G1 X118.507 Y102.192 E.02315
G1 X118.507 Y97.595 E.11978
G1 X118.043 Y98.843 E.03469
G1 X118.043 Y101.556 E.07069
;WIPE_START
G1 F8640
G1 X118.043 Y98.843 E-.62644
G1 X118.305 Y98.139 E-.17356
;WIPE_END
G1 Z.55 F10800
G1 X130.454 Y102.174
G1 Z.15
G1 E.8 F2100
;TYPE:Perimeter
;WIDTH:0.449999
G1 F2400
G1 X130.651 Y102.042 E.00618
G1 X130.713 Y101.852 E.00521
G1 X130.804 Y101.209 E.01692
G1 X130.783 Y100.555 E.01705
G1 X130.651 Y99.906 E.01726
G1 X130.435 Y99.774 E.0066
G1 X130.651 Y99.642 E.0066
G1 X130.712 Y99.458 E.00505
G1 X130.81 Y98.844 E.0162
G1 X130.849 Y98.317 E.01377
G1 X130.852 Y97.723 E.01548
G1 X133.37 Y99.73 E.0839
G1 X133.37 Y100.357 E.01634
G1 X133.37 Y102.218 E.04849
G1 X130.851 Y104.226 E.08394
G1 X130.844 Y103.557 E.01743
G1 X130.715 Y102.515 E.02736
G1 X130.651 Y102.307 E.00567
G1 X130.504 Y102.208 E.00462
G1 X130.204 Y102.462 F10800
;TYPE:External perimeter
;WIDTH:0.451595
G1 F2400
G1 X130.111 Y102.383 E.00319
G1 X126.611 Y102.383 E.09154
;WIDTH:0.449999
G1 X126.402 Y102.36 E.00548
G1 X126.402 Y101.989 E.00967
G1 X126.533 Y101.965 E.00347
G1 X130.093 Y101.965 E.09276
G1 X130.279 Y101.851 E.00568
G1 X130.387 Y101.209 E.01696
G1 X130.384 Y100.708 E.01305
G1 X130.296 Y100.14 E.01498
G1 X130.093 Y99.983 E.00669
G1 X126.614 Y99.983 E.09065
G1 X126.405 Y99.96 E.00548
G1 X126.405 Y99.588 E.00969
G1 X126.533 Y99.565 E.00339
G1 X130.093 Y99.565 E.09276
G1 X130.279 Y99.451 E.00568
G1 X130.391 Y98.829 E.01647
G1 X130.431 Y98.315 E.01343
G1 X130.439 Y96.859 E.03794
G1 X133.788 Y99.529 E.1116
G1 X133.788 Y100.357 E.02157
G1 X133.788 Y102.419 E.05373
G1 X130.437 Y105.09 E.11166
G1 X130.431 Y103.633 E.03796
G1 X130.295 Y102.54 E.0287
;WIDTH:0.451595
G1 X130.249 Y102.501 E.00158
;WIPE_START
G1 F8640
G1 X130.204 Y102.462 E-.01375
G1 X130.111 Y102.383 E-.02818
G1 X126.828 Y102.383 E-.75807
;WIPE_END
G1 Z.55 F10800
G1 X133.245 Y100.65
G1 Z.15
G1 E.8 F2100
;TYPE:Solid infill
;WIDTH:0.452082
G1 F2400
G1 X131.141 Y98.546 E.07792
G1 X131.122 Y98.871 E.00852
G1 X131.088 Y99.087 E.00573
G1 X133.057 Y101.056 E.07292
G1 X133.057 Y101.65 E.01555
G1 X130.996 Y99.589 E.07632
G1 X130.935 Y99.774 E.0051
G1 X131.004 Y99.958 E.00515
G1 X131.044 Y100.231 E.00723
G1 X132.959 Y102.145 E.0709
G1 X132.628 Y102.409 E.01109
G1 X131.115 Y100.896 E.05603
G1 X131.108 Y101.345 E.01176
G1 X131.089 Y101.464 E.00316
G1 X132.298 Y102.672 E.04475
G1 X131.967 Y102.936 E.01109
G1 X131.001 Y101.969 E.03579
G1 X130.935 Y102.174 E.00564
G1 X131.025 Y102.467 E.00803
G1 X131.042 Y102.604 E.00361
G1 X131.637 Y103.199 E.02203
G1 X131.306 Y103.462 E.01107
G1 X130.909 Y103.065 E.0147
M106 S84.15
;LAYER_CHANGE
;Z:0.3
;HEIGHT:0.15
;BEFORE_LAYER_CHANGE
G92 E0.0
;0.3


;WIPE_START
G1 F8640
G1 X131.306 Y103.462 E-.12964
G1 X131.637 Y103.199 E-.09762
G1 X131.042 Y102.604 E-.19429
G1 X131.025 Y102.467 E-.03188
G1 X130.935 Y102.174 E-.07077
G1 X131.001 Y101.969 E-.04973
G1 X131.693 Y102.661 E-.22607
;WIPE_END
G1 Z.3 F10800
;AFTER_LAYER_CHANGE
;0.3
G1 Z.7
G1 X124.319 Y105.268
G1 Z.3
G1 E.8 F2100
;TYPE:Support material
;WIDTH:0.35
G1 F1288
G1 X124.792 Y104.999 E.01078
G1 X125.237 Y104.855 E.00927
G1 X125.796 Y104.792 E.01115
G1 X125.812 Y104.442 E.00694
G1 X126.239 Y104.461 E.00847
G1 X127.261 Y104.793 E.0213
G1 X127.711 Y105.09 E.01069
G1 X128.417 Y105.899 E.02128
G1 X128.794 Y106.904 E.02127
G1 X128.794 Y107.978 E.02129
G1 X128.417 Y108.983 E.02127
G1 X128.1 Y109.419 E.01068
G1 X127.26 Y110.089 E.0213
G1 X126.239 Y110.42 E.02127
G1 X125.701 Y110.444 E.01067
G1 X124.654 Y110.205 E.02128
G1 X123.758 Y109.614 E.02127
G1 X123.404 Y109.208 E.01068
G1 X122.938 Y108.241 E.02127
G1 X122.842 Y107.172 E.02127
M73 Q6 S9
G1 X122.938 Y106.642 E.01068
G1 X123.403 Y105.674 E.02128
G1 X124.179 Y104.932 E.02128
G1 X124.654 Y104.676 E.01069
G1 X125.162 Y104.511 E.01059
G1 X125.764 Y104.44 E.01201
G1 X126.286 Y104.113 F10800
M73 P6 R9
G1 F1288
G1 X126.873 Y104.247 E.01193
G1 X127.427 Y104.484 E.01194
G1 X127.93 Y104.815 E.01193
G1 X128.365 Y105.231 E.01193
G1 X128.719 Y105.719 E.01195
G1 X128.98 Y106.261 E.01192
G1 X129.14 Y106.842 E.01194
G1 X129.194 Y107.441 E.01192
G1 X129.14 Y108.041 E.01194
G1 X128.98 Y108.621 E.01192
G1 X128.718 Y109.164 E.01195
G1 X128.364 Y109.651 E.01193
G1 X127.929 Y110.067 E.01193
G1 X127.426 Y110.398 E.01193
G1 X126.873 Y110.635 E.01192
G1 X126.286 Y110.768 E.01193
G1 X125.685 Y110.795 E.01192
G1 X125.088 Y110.714 E.01194
G1 X124.516 Y110.528 E.01192
G1 X123.986 Y110.243 E.01193
G1 X123.515 Y109.868 E.01193
G1 X123.119 Y109.415 E.01193
G1 X122.811 Y108.898 E.01193
G1 X122.599 Y108.335 E.01192
G1 X122.492 Y107.742 E.01194
G1 X122.492 Y107.14 E.01193
G1 X122.599 Y106.548 E.01192
G1 X122.81 Y105.985 E.01192
G1 X123.119 Y105.468 E.01194
G1 X123.515 Y105.014 E.01194
G1 X123.985 Y104.639 E.01192
G1 X124.515 Y104.353 E.01194
G1 X125.087 Y104.168 E.01191
G1 X126.239 Y104.111 E.02286
;WIPE_START
G1 F8640
G1 X125.087 Y104.168 E-.26633
G1 X124.515 Y104.353 E-.13881
G1 X123.985 Y104.639 E-.13906
G1 X123.515 Y105.014 E-.13883
G1 X123.182 Y105.396 E-.11697
;WIPE_END
G1 Z.7 F10800
G1 X121.755 Y98.664
G1 Z.3
G1 E.8 F2100
G1 F1288
G1 X122.108 Y98.383 E.00894
G1 X122.444 Y98.233 E.00729
G1 X123.182 Y98.158 E.0147
G1 X123.255 Y97.816 E.00693
G1 X124.044 Y98.079 E.01648
G1 X124.4 Y98.34 E.00875
G1 X124.913 Y99.052 E.01739
G1 X125.089 Y99.908 E.01732
G1 X125.041 Y100.339 E.0086
G1 X124.88 Y100.79 E.00949
G1 X124.449 Y101.195 E.01172
G1 X123.297 Y101.525 E.02375
G1 X122.515 Y101.535 E.0155
G1 X121.462 Y101.168 E.0221
G1 X121.067 Y100.739 E.01156
G1 X120.887 Y99.908 E.01685
G1 X120.93 Y99.471 E.0087
G1 X121.281 Y98.669 E.01735
G1 X121.931 Y98.079 E.0174
G1 X122.335 Y97.898 E.00877
G1 X123.209 Y97.806 E.01742
G1 X123.592 Y97.53 F10800
G1 F1288
G1 X124.221 Y97.775 E.01338
G1 X124.637 Y98.079 E.01021
G1 X124.98 Y98.463 E.0102
G1 X125.235 Y98.91 E.0102
G1 X125.391 Y99.4 E.01019
G1 X125.441 Y99.911 E.01018
G1 X125.384 Y100.418 E.01011
G1 X125.193 Y100.953 E.01126
G1 X125.014 Y101.209 E.00619
G1 X124.606 Y101.511 E.01006
G1 X123.351 Y101.871 E.02588
G1 X122.465 Y101.882 E.01756
G1 X122.047 Y101.791 E.00848
G1 X121.269 Y101.462 E.01674
G1 X120.99 Y101.238 E.00709
G1 X120.751 Y100.898 E.00824
G1 X120.592 Y100.42 E.00998
G1 X120.535 Y99.911 E.01015
G1 X120.585 Y99.4 E.01018
G1 X120.741 Y98.91 E.01019
G1 X120.996 Y98.463 E.0102
G1 X121.339 Y98.079 E.0102
G1 X121.755 Y97.775 E.01021
G1 X122.225 Y97.564 E.01021
G1 X122.73 Y97.456 E.01024
G1 X123.546 Y97.52 E.01622
;WIPE_START
G1 F8640
G1 X122.73 Y97.456 E-.189
G1 X122.225 Y97.564 E-.11924
G1 X121.755 Y97.775 E-.11896
G1 X121.339 Y98.079 E-.11897
G1 X120.996 Y98.463 E-.11889
G1 X120.741 Y98.91 E-.11883
G1 X120.72 Y98.976 E-.01611
;WIPE_END
G1 Z.7 F10800
G1 X123.997 Y92.845
G1 Z.3
G1 E.8 F2100
G1 F1288
G1 X124.474 Y92.58 E.01081
G1 X124.965 Y92.447 E.01008
