; generated by PrusaSlicer 2.9.2 on 2025-11-04 at 13:33:49 UTC


;
;
; 

; external perimeters extrusion width = 0.45mm
; perimeters extrusion width = 0.45mm
; infill extrusion width = 0.45mm
; solid infill extrusion width = 0.45mm
; top infill extrusion width = 0.45mm
; support material extrusion width = 0.35mm
; first layer extrusion width = 0.45mm

M73 P0 R4
M73 Q0 S4
M201 X1000 Y1000 Z200 E5000 ; sets maximum accelerations, mm/sec^2
M203 X200 Y200 Z12 E120 ; sets maximum feedrates, mm / sec
M204 S1250 T1250 ; sets acceleration (S) and retract acceleration (R), mm/sec^2
M205 X8.00 Y8.00 Z0.40 E4.50 ; sets the jerk limits, mm/sec
M205 S0 T0 ; sets the minimum extruding and travel feed rate, mm/sec

; printing object lateral_connector id:0 copy 0
; stop printing object lateral_connector id:0 copy 0

;TYPE:Custom
M862.3 P "MK3S" ; printer model check
M862.1 P0.4 ; nozzle diameter check
M115 U3.13.2 ; tell printer latest fw version
G90 ; use absolute coordinates
M83 ; extruder relative mode
M104 S200 ; set extruder temp
M140 S55 ; set bed temp
M190 S55 ; wait for bed temp
M109 S200 ; wait for extruder temp
G28 W ; home all without mesh bed level
G80 X82.705 Y90.5239 W14.5825 H15.0806 ; mesh bed levelling

G1 Z0.2 F720
G1 Y-3 F1000 ; go outside print area
G92 E0
G1 X60 E9 F1000 ; intro line
G1 X100 E12.5 F1000 ; intro line
M73 P1 R4
M73 Q1 S4

G92 E0
M221 S95

; Don't change E values below. Excessive value can damage the printer.
M907 E430 ; set extruder motor current
G21 ; set units to millimeters
G90 ; use absolute coordinates
M83 ; use relative distances for extrusion
M900 K0.05 ; Filament gcode LA 1.5
M900 K30 ; Filament gcode LA 1.0

M107
;LAYER_CHANGE
;Z:0.15
;HEIGHT:0.15
G1 E-.8 F2100
M73 P2 R4
M73 Q2 S4
G1 Z.55 F10800
G1 X84.443 Y93.553
G1 Z.15
G1 E.8 F2100
M204 S1000
;TYPE:Skirt/Brim
;WIDTH:0.45
G1 F1667
G1 X88.059 Y91.175 E.11277
G1 X89.129 Y90.817 E.0294
G1 X90.11 Y90.734 E.02565
G1 X91.369 Y90.948 E.03327
G1 X92.391 Y91.429 E.02943
G1 X95.55 Y93.553 E.09919
G1 X96.661 Y94.776 E.04305
G1 X97.079 Y96.426 E.04435
G1 X97.079 Y99.703 E.08538
G1 X96.684 Y101.307 E.04304
G1 X95.55 Y102.575 E.04432
G1 X91.934 Y104.954 E.11278
G1 X91.006 Y105.28 E.02563
G1 X89.925 Y105.396 E.02833
G1 X88.764 Y105.223 E.03058
G1 X87.602 Y104.7 E.0332
G1 X84.443 Y102.575 E.0992
G1 X83.332 Y101.352 E.04305
G1 X82.914 Y99.703 E.04432
M73 Q3 S4
G1 X82.914 Y96.426 E.08538
G1 X83.308 Y94.821 E.04306
G1 X84.403 Y93.598 E.04277
G1 X84.676 Y93.9 F10800
M73 P3 R4
G1 F1667
G1 X88.123 Y91.61 E.10783
G1 X89.082 Y91.255 E.02664
G1 X90.102 Y91.151 E.02671
G1 X91.238 Y91.345 E.03003
G1 X92.165 Y91.781 E.02669
G1 X95.316 Y93.9 E.09894
G1 X96.338 Y95.062 E.04032
G1 X96.661 Y96.426 E.03652
G1 X96.661 Y99.703 E.08538
G1 X96.267 Y101.2 E.04033
G1 X95.316 Y102.228 E.03649
G1 X91.87 Y104.518 E.10781
G1 X90.91 Y104.874 E.02668
G1 X89.933 Y104.978 E.0256
G1 X88.878 Y104.821 E.02779
G1 X87.828 Y104.348 E.03001
G1 X84.676 Y102.228 E.09898
G1 X83.654 Y101.066 E.04032
G1 X83.332 Y99.703 E.03649
G1 X83.332 Y96.426 E.08538
G1 X83.725 Y94.929 E.04033
G1 X84.635 Y93.944 E.03494
G1 X84.909 Y94.247 F10800
G1 F1667
G1 X88.318 Y91.979 E.10669
G1 X89.179 Y91.661 E.02392
G1 X90.093 Y91.569 E.02394
G1 X91.108 Y91.742 E.02683
G1 X91.939 Y92.132 E.02392
G1 X95.083 Y94.247 E.09873
G1 X96.01 Y95.343 E.0374
G1 X96.243 Y96.426 E.02886
G1 X96.243 Y99.703 E.08538
G1 X95.851 Y101.084 E.0374
G1 X95.083 Y101.882 E.02886
G1 X91.674 Y104.149 E.10667
G1 X90.813 Y104.467 E.02392
G1 X89.942 Y104.56 E.02282
G1 X88.991 Y104.419 E.02505
G1 X88.054 Y103.997 E.02678
M73 Q4 S4
G1 X84.909 Y101.882 E.09875
G1 X83.983 Y100.785 E.03741
G1 X83.75 Y99.703 E.02884
G1 X83.75 Y96.426 E.08538
G1 X84.142 Y95.045 E.0374
M73 P4 R4
G1 X84.868 Y94.29 E.02729
G1 X85.143 Y94.593 F10800
G1 F1667
G1 X88.514 Y92.349 E.10552
G1 X89.275 Y92.068 E.02114
G1 X90.084 Y91.987 E.02118
G1 X90.978 Y92.139 E.02363
G1 X91.749 Y92.506 E.02225
G1 X94.85 Y94.593 E.09739
G1 X95.672 Y95.618 E.03423
G1 X95.825 Y96.426 E.02143
G1 X95.825 Y99.703 E.08538
G1 X95.434 Y100.957 E.03423
G1 X94.85 Y101.535 E.02141
G1 X91.517 Y103.76 E.10442
G1 X90.758 Y104.051 E.02118
G1 X89.951 Y104.143 E.02116
G1 X89.105 Y104.016 E.02229
G1 X88.244 Y103.622 E.02467
G1 X85.143 Y101.535 E.09739
G1 X84.32 Y100.51 E.03425
G1 X84.167 Y99.703 E.0214
G1 X84.167 Y96.426 E.08538
G1 X84.558 Y95.171 E.03425
G1 X85.1 Y94.635 E.01986
;WIPE_START
G1 F8640
G1 X85.143 Y94.593 E-.01388
G1 X87.977 Y92.706 E-.78612
;WIPE_END
G1 Z.55 F10800
; printing object lateral_connector id:0 copy 0
G1 X87.219 Y96.874
G1 Z.15
G1 E.8 F2100
;TYPE:Perimeter
;WIDTH:0.449999
G1 F1667
G1 X89.868 Y95.092 E.08319
G1 X89.959 Y95.049 E.00262
G1 X90.101 Y95.076 E.00377
G1 X92.773 Y96.874 E.08392
G1 X92.773 Y98.064 E.03101
G1 X92.773 Y99.254 E.03101
G1 X90.125 Y101.036 E.08316
G1 X90.043 Y101.076 E.00238
G1 X89.886 Y101.048 E.00416
G1 X87.219 Y99.254 E.08375
G1 X87.219 Y96.934 E.06045
G1 X86.801 Y96.652 F10800
M73 Q5 S4
;TYPE:External perimeter
G1 F1667
G1 X89.635 Y94.746 E.08899
G1 X89.743 Y94.687 E.00321
G1 X90.023 Y94.622 E.00749
G1 X90.305 Y94.71 E.0077
G1 X93.191 Y96.652 E.09064
G1 X93.191 Y98.064 E.03679
M73 P5 R4
G1 X93.191 Y99.477 E.03682
G1 X90.307 Y101.417 E.09056
G1 X89.996 Y101.507 E.00844
G1 X89.686 Y101.417 E.00841
G1 X86.801 Y99.477 E.09059
G1 X86.801 Y96.712 E.07204
;WIPE_START
G1 F8640
G1 X86.801 Y96.652 E-.01385
G1 X89.626 Y94.752 E-.78615
;WIPE_END
G1 Z.55 F10800
G1 X92.648 Y97.861
G1 Z.15
G1 E.8 F2100
;TYPE:Solid infill
;WIDTH:0.480847
G1 F1667
G1 X90.529 Y95.742 E.08385
G1 X89.996 Y95.383 E.01798
G1 X89.721 Y95.569 E.00929
G1 X92.46 Y98.307 E.10836
G1 X92.46 Y98.942 E.01777
G1 X89.342 Y95.824 E.12338
G1 X88.963 Y96.079 E.01278
G1 X92.167 Y99.284 E.1268
G1 X91.788 Y99.539 E.01278
G1 X88.583 Y96.334 E.12682
G1 X88.204 Y96.589 E.01278
G1 X91.408 Y99.794 E.1268
G1 X91.029 Y100.049 E.01278
G1 X87.825 Y96.845 E.12678
G1 X87.532 Y97.041 E.00986
G1 X87.532 Y97.187 E.00409
G1 X90.649 Y100.304 E.12334
G1 X90.27 Y100.559 E.01278
G1 X87.532 Y97.821 E.10834
G1 X87.532 Y98.456 E.01777
M73 Q6 S4
G1 X90.026 Y100.949 E.09867
M106 S84.15
;LAYER_CHANGE
;Z:0.3
;HEIGHT:0.15
;BEFORE_LAYER_CHANGE
G92 E0.0
;0.3


;WIPE_START
G1 F8640
G1 X87.576 Y98.499 E-.8
;WIPE_END
G1 Z.3 F10800
M73 P6 R4
;AFTER_LAYER_CHANGE
;0.3
G1 Z.7
G1 X90.139 Y101.235
G1 Z.3
G1 E.8 F2100
M204 S800
;TYPE:Perimeter
;WIDTH:0.449999
G1 F900
G1 X90.003 Y101.285 E.00378
G1 X89.787 Y101.223 E.00586
G1 X87.019 Y99.361 E.08692
G1 X87.019 Y96.768 E.06756
G1 X89.781 Y94.909 E.08675
G1 X90.017 Y94.844 E.00638
G1 X90.205 Y94.906 E.00516
G1 X92.973 Y96.768 E.08692
G1 X92.973 Y99.361 E.06756
G1 X90.246 Y101.195 E.08563
G1 X90.196 Y101.214 E.00139
M204 S1000
G1 X90.31 Y101.624 F10800
M204 S800
;TYPE:External perimeter
G1 F900
G1 X90.189 Y101.683 E.00351
G1 X89.904 Y101.693 E.00743
G1 X89.583 Y101.589 E.00879
G1 X86.601 Y99.583 E.09364
G1 X86.601 Y96.545 E.07916
G1 X89.513 Y94.587 E.09143
G1 X89.802 Y94.447 E.00837
G1 X90.13 Y94.439 E.00855
G1 X90.409 Y94.539 E.00772
G1 X93.391 Y96.545 E.09364
G1 X93.391 Y99.583 E.07916
M73 Q7 S4
G1 X90.48 Y101.542 E.09142
M73 P7 R4
G1 X90.364 Y101.598 E.00336
M204 S1000
;WIPE_START
G1 F8640
G1 X90.31 Y101.624 E-.01384
G1 X90.189 Y101.683 E-.03108
G1 X89.904 Y101.693 E-.06585
G1 X89.583 Y101.589 E-.07791
G1 X87.386 Y100.111 E-.61132
;WIPE_END
G1 Z.7 F10800
G1 X88.497 Y96.124
G1 Z.3
G1 E.8 F2100
;TYPE:Solid infill
;WIDTH:0.376182
G1 F900
G1 X88.425 Y96.104 E.0016
G1 X88.444 Y96.176 E.0016
G1 X88.486 Y96.165 E.00093
;WIDTH:0.413091
G1 X88.323 Y96.272 E.00463
;WIDTH:0.449999
G1 X88.16 Y96.378 E.00507
G1 X87.332 Y97.206 E.03051
G1 X87.299 Y97.036 E.00451
;WIDTH:0.411095
G1 X87.265 Y96.866 E.0041
;WIDTH:0.37219
G1 X87.194 Y96.847 E.00156
G1 X87.213 Y96.918 E.00156
G1 X87.254 Y96.907 E.0009
G1 X87.332 Y97.796 F10800
;WIDTH:0.449999
G1 F900
G1 X89.951 Y95.178 E.09649
G1 X90.344 Y95.376 E.01147
G1 X87.332 Y98.387 E.11097
G1 X87.219 Y99.3 F10800
;WIDTH:0.37219
G1 F900
G1 X87.178 Y99.311 E.0009
G1 X87.159 Y99.24 E.00156
G1 X87.23 Y99.259 E.00156
;WIDTH:0.411095
G1 X87.281 Y99.119 E.00352
;WIDTH:0.449999
G1 X87.332 Y98.978 E.00391
G1 X90.697 Y95.614 E.12398
G1 X91.05 Y95.851 E.01108
G1 X87.557 Y99.345 E.12873
G1 X87.91 Y99.582 E.01108
G1 X91.403 Y96.089 E.12871
G1 X91.756 Y96.327 E.01109
M73 Q8 S4
G1 X88.263 Y99.82 E.12871
G1 X88.616 Y100.058 E.01109
M73 P8 R4
G1 X92.11 Y96.564 E.12875
G1 X92.841 Y96.849 E.02044
;WIDTH:0.37219
G1 X92.77 Y96.83 E.00156
G1 X92.789 Y96.901 E.00156
G1 X92.83 Y96.89 E.0009
;WIDTH:0.411095
G1 X92.646 Y96.846 E.00447
;WIDTH:0.449999
G1 X92.463 Y96.802 E.0049
G1 X88.97 Y100.295 E.12871
G1 X89.323 Y100.533 E.01109
G1 X92.66 Y97.196 E.12296
G1 X92.66 Y97.787 E.0154
G1 X89.676 Y100.771 E.10996
G1 X89.777 Y100.919 E.00467
;WIDTH:0.411095
G1 X89.878 Y101.067 E.00423
;WIDTH:0.37219
G1 X89.978 Y101.093 E.00219
;WIDTH:0.449999
G1 X90.166 Y100.872 E.00756
G1 X92.66 Y98.377 E.09192
G1 X92.66 Y98.968 E.0154
G1 X91.971 Y99.657 E.02539
G1 X91.824 Y99.779 E.00498
;WIDTH:0.413088
G1 X91.676 Y99.9 E.00454
;WIDTH:0.376176
G1 X91.884 Y99.865 E.00452
;WIDTH:0.402428
G1 X92.684 Y99.206 E.02393
M106 S170.85
;LAYER_CHANGE
;Z:0.45
;HEIGHT:0.15
;BEFORE_LAYER_CHANGE
G92 E0.0
;0.45


;WIPE_START
G1 F8640
G1 X91.884 Y99.865 E-.23933
G1 X91.676 Y99.9 E-.0487
G1 X91.824 Y99.779 E-.04414
G1 X91.971 Y99.657 E-.04411
G1 X92.66 Y98.968 E-.22499
G1 X92.66 Y98.377 E-.13646
G1 X92.469 Y98.568 E-.06227
;WIPE_END
G1 Z.45 F10800
;AFTER_LAYER_CHANGE
;0.45
G1 Z.45
G1 X92.973 Y99.361
G1 E.8 F2100
M204 S800
;TYPE:Perimeter
;WIDTH:0.449999
G1 F900
G1 X90.247 Y101.195 E.08561
G1 X89.996 Y101.286 E.00696
G1 X89.781 Y101.219 E.00587
G1 X87.019 Y99.361 E.08673
G1 X87.019 Y96.768 E.06756
M73 Q9 S4
G1 X89.781 Y94.909 E.08675
M73 P9 R4
G1 X90.017 Y94.844 E.00638
G1 X90.205 Y94.906 E.00516
G1 X92.973 Y96.768 E.08692
G1 X92.973 Y99.301 E.066
M204 S1000
G1 X93.391 Y99.583 F10800
M204 S800
;TYPE:External perimeter
G1 F900
G1 X90.48 Y101.542 E.09142
G1 X90.19 Y101.682 E.00839
G1 X89.904 Y101.696 E.00746
G1 X89.581 Y101.588 E.00887
G1 X86.601 Y99.583 E.09358
G1 X86.601 Y96.545 E.07916
G1 X89.513 Y94.587 E.09143
G1 X89.802 Y94.447 E.00837
G1 X90.13 Y94.439 E.00855
G1 X90.409 Y94.539 E.00772
G1 X93.391 Y96.545 E.09364
G1 X93.391 Y99.523 E.07759
M204 S1000
;WIPE_START
G1 F8640
G1 X93.391 Y99.583 E-.01385
G1 X90.566 Y101.484 E-.78615
;WIPE_END
G1 Z.85 F10800
G1 X87.212 Y99.209
G1 Z.45
G1 E.8 F2100
;TYPE:Solid infill
;WIDTH:0.37219
G1 F900
M73 Q10 S4
G1 X87.193 Y99.28 E.00156
G1 X87.264 Y99.261 E.00156
G1 X87.253 Y99.22 E.0009
;WIDTH:0.411095
G1 X87.293 Y99.072 E.00362
;WIDTH:0.449999
G1 X87.332 Y98.923 E.00401
G1 X88.16 Y99.75 E.03049
G1 X88.323 Y99.857 E.00508
;WIDTH:0.41309
G1 X88.486 Y99.963 E.00462
;WIDTH:0.37618
G1 X88.497 Y100.005 E.00093
G1 X88.425 Y100.024 E.0016
G1 X88.444 Y99.952 E.0016
;WIPE_START
G1 F8640
G1 X88.425 Y100.024 E-.01719
G1 X88.497 Y100.005 E-.01719
G1 X88.486 Y99.963 E-.01003
G1 X88.323 Y99.857 E-.0449
G1 X88.16 Y99.75 E-.04502
G1 X87.332 Y98.923 E-.27022
G1 X87.293 Y99.072 E-.03556
G1 X87.253 Y99.22 E-.0354
G1 X87.264 Y99.261 E-.0098
G1 X87.193 Y99.28 E-.01697
G1 X87.212 Y99.209 E-.01697
;WIPE_END
G1 E-.28075 F2100
M73 P10 R4
G1 Z.85 F10800
G1 X89.948 Y100.947
G1 Z.45
G1 E.8 F2100
;WIDTH:0.449999
G1 F900
G1 X87.332 Y98.332 E.09638
G1 X87.332 Y97.741 E.0154
G1 X90.344 Y100.752 E.11097
G1 X90.697 Y100.515 E.01108
G1 X87.332 Y97.15 E.12399
G1 X87.277 Y96.991 E.00438
;WIDTH:0.411095
G1 X87.221 Y96.832 E.00398
;WIDTH:0.37219
G1 X87.232 Y96.873 E.0009
G1 X87.161 Y96.892 E.00156
G1 X87.18 Y96.821 E.00156
;WIDTH:0.449999
G1 X87.557 Y96.784 E.00987
G1 X91.05 Y100.277 E.12871
G1 X91.403 Y100.039 E.01109
G1 X87.91 Y96.546 E.12871
G1 X88.263 Y96.309 E.01108
G1 X91.756 Y99.802 E.12871
G1 X92.11 Y99.564 E.01111
G1 X88.616 Y96.071 E.12873
G1 X88.97 Y95.833 E.01111
M73 Q11 S4
G1 X92.463 Y99.326 E.12871
G1 X92.624 Y99.274 E.00441
M73 P11 R4
;WIDTH:0.411095
G1 X92.786 Y99.222 E.00402
;WIDTH:0.37219
G1 X92.767 Y99.293 E.00156
G1 X92.838 Y99.274 E.00156
G1 X92.827 Y99.233 E.0009
;WIDTH:0.449999
G1 X92.66 Y98.933 E.00895
G1 X89.323 Y95.596 E.12296
G1 X89.676 Y95.358 E.01109
G1 X92.66 Y98.342 E.10996
G1 X92.66 Y97.751 E.0154
G1 X90.166 Y95.256 E.09192
G1 X90.075 Y95.133 E.00399
;WIDTH:0.411095
G1 X89.984 Y95.009 E.00363
;WIDTH:0.37219
G1 X89.995 Y95.05 E.0009
G1 X89.924 Y95.069 E.00156
G1 X89.943 Y94.998 E.00156
;WIPE_START
G1 F8640
G1 X89.924 Y95.069 E-.01697
G1 X89.995 Y95.05 E-.01697
G1 X89.984 Y95.009 E-.0098
G1 X90.075 Y95.133 E-.03551
G1 X90.166 Y95.256 E-.03533
G1 X92.265 Y97.355 E-.68542
;WIPE_END
G1 Z.85 F10800
G1 X91.676 Y96.228
G1 Z.45
G1 E.8 F2100
;WIDTH:0.376176
G1 F900
G1 X91.884 Y96.263 E.00452
;WIDTH:0.402428
G1 X92.684 Y96.922 E.02393
;WIDTH:0.449999
G1 X92.66 Y97.16 E.00623
G1 X91.971 Y96.471 E.02539
M106 S255
;LAYER_CHANGE
;Z:0.6
;HEIGHT:0.15
;BEFORE_LAYER_CHANGE
G92 E0.0
;0.6


;WIPE_START
G1 F8640
G1 X92.66 Y97.16 E-.22499
G1 X92.684 Y96.922 E-.05523
G1 X91.884 Y96.263 E-.23933
G1 X91.676 Y96.228 E-.0487
;WIPE_END
G1 E-.23175 F2100
G1 Z.6 F10800
;AFTER_LAYER_CHANGE
;0.6
G1 Z1
G1 X92.973 Y96.768
G1 Z.6
G1 E.8 F2100
M204 S800
;TYPE:Perimeter
G1 F900
G1 X92.973 Y99.361 E.06756
G1 X90.247 Y101.195 E.08561
G1 X89.996 Y101.286 E.00696
G1 X89.781 Y101.219 E.00587
G1 X87.019 Y99.361 E.08673
G1 X87.019 Y96.768 E.06756
M73 Q12 S4
G1 X89.781 Y94.909 E.08675
M73 P12 R4
G1 X90.016 Y94.844 E.00635
G1 X90.205 Y94.906 E.00518
G1 X92.924 Y96.734 E.08537
M204 S1000
G1 X93.391 Y96.545 F10800
M204 S800
;TYPE:External perimeter
G1 F900
G1 X93.391 Y99.583 E.07916
G1 X90.48 Y101.542 E.09142
G1 X90.19 Y101.682 E.00839
G1 X89.904 Y101.695 E.00746
G1 X89.581 Y101.588 E.00887
G1 X86.601 Y99.583 E.09358
G1 X86.601 Y96.545 E.07916
G1 X89.513 Y94.587 E.09143
G1 X89.802 Y94.447 E.00837
G1 X90.129 Y94.439 E.00852
G1 X90.409 Y94.539 E.00775
G1 X93.341 Y96.512 E.09208
M204 S1000
;WIPE_START
G1 F8640
G1 X93.391 Y96.545 E-.01383
G1 X93.391 Y99.583 E-.70148
G1 X93.087 Y99.788 E-.08469
;WIPE_END
G1 Z1 F10800
G1 X88.497 Y96.124
G1 Z.6
G1 E.8 F2100
;TYPE:Solid infill
;WIDTH:0.376182
G1 F900
G1 X88.425 Y96.104 E.0016
G1 X88.444 Y96.176 E.0016
G1 X88.486 Y96.165 E.00093
;WIDTH:0.413091
G1 X88.323 Y96.272 E.00463
;WIDTH:0.449999
G1 X88.16 Y96.378 E.00507
G1 X87.332 Y97.206 E.03051
G1 X87.299 Y97.036 E.00451
;WIDTH:0.411095
G1 X87.265 Y96.866 E.0041
M73 Q13 S4
;WIDTH:0.37219
G1 X87.194 Y96.847 E.00156
G1 X87.213 Y96.918 E.00156
G1 X87.254 Y96.907 E.0009
G1 X87.332 Y97.796 F10800
;WIDTH:0.449999
G1 F900
G1 X89.951 Y95.178 E.09649
G1 X90.344 Y95.376 E.01147
M73 P13 R4
G1 X87.332 Y98.387 E.11097
G1 X87.219 Y99.3 F10800
;WIDTH:0.37219
G1 F900
G1 X87.178 Y99.311 E.0009
G1 X87.159 Y99.24 E.00156
G1 X87.23 Y99.259 E.00156
;WIDTH:0.411095
G1 X87.281 Y99.119 E.00352
;WIDTH:0.449999
G1 X87.332 Y98.978 E.00391
G1 X90.697 Y95.614 E.12398
G1 X91.05 Y95.851 E.01108
G1 X87.557 Y99.345 E.12873
G1 X87.91 Y99.582 E.01108
G1 X91.403 Y96.089 E.12871
G1 X91.756 Y96.327 E.01109
G1 X88.263 Y99.82 E.12871
G1 X88.616 Y100.058 E.01109
G1 X92.11 Y96.564 E.12875
G1 X92.841 Y96.849 E.02044
;WIDTH:0.37219
G1 X92.77 Y96.83 E.00156
G1 X92.789 Y96.901 E.00156
G1 X92.83 Y96.89 E.0009
;WIDTH:0.411095
G1 X92.646 Y96.846 E.00447
;WIDTH:0.449999
G1 X92.463 Y96.802 E.0049
G1 X88.97 Y100.295 E.12871
G1 X89.323 Y100.533 E.01109
G1 X92.66 Y97.196 E.12296
M73 Q14 S4
G1 X92.66 Y97.787 E.0154
M73 P14 R4
G1 X89.676 Y100.771 E.10996
G1 X89.773 Y100.917 E.00457
;WIDTH:0.411095
G1 X89.869 Y101.064 E.00415
;WIDTH:0.37219
G1 X89.978 Y101.094 E.0024
;WIDTH:0.449999
G1 X90.166 Y100.872 E.00758
G1 X92.66 Y98.377 E.09192
G1 X92.66 Y98.968 E.0154
G1 X91.971 Y99.657 E.02539
G1 X91.824 Y99.779 E.00498
;WIDTH:0.413088
G1 X91.676 Y99.9 E.00454
;WIDTH:0.376176
G1 X91.884 Y99.865 E.00452
;WIDTH:0.402428
G1 X92.684 Y99.206 E.02393
;LAYER_CHANGE
;Z:0.75
;HEIGHT:0.15
;BEFORE_LAYER_CHANGE
G92 E0.0
;0.75


;WIPE_START
G1 F8640
G1 X91.884 Y99.865 E-.23933
G1 X91.676 Y99.9 E-.0487
G1 X91.824 Y99.779 E-.04414
G1 X91.971 Y99.657 E-.04411
G1 X92.66 Y98.968 E-.22499
G1 X92.66 Y98.377 E-.13646
