; generated by PrusaSlicer 2.9.2 on 2025-11-04 at 13:18:20 UTC


;
;
; 

; external perimeters extrusion width = 0.45mm
; perimeters extrusion width = 0.45mm
; infill extrusion width = 0.45mm
; solid infill extrusion width = 0.45mm
; top infill extrusion width = 0.45mm
; support material extrusion width = 0.35mm
; first layer extrusion width = 0.45mm

M73 P0 R7
M73 Q0 S7
M201 X1000 Y1000 Z200 E5000 ; sets maximum accelerations, mm/sec^2
M203 X200 Y200 Z12 E120 ; sets maximum feedrates, mm / sec
M204 S1250 T1250 ; sets acceleration (S) and retract acceleration (R), mm/sec^2
M205 X8.00 Y8.00 Z0.40 E4.50 ; sets the jerk limits, mm/sec
M205 S0 T0 ; sets the minimum extruding and travel feed rate, mm/sec

; printing object 4way_connector id:0 copy 0
; stop printing object 4way_connector id:0 copy 0

;TYPE:Custom
M862.3 P "MK3S" ; printer model check
M862.1 P0.4 ; nozzle diameter check
M115 U3.13.2 ; tell printer latest fw version
G90 ; use absolute coordinates
M83 ; extruder relative mode
M104 S200 ; set extruder temp
M140 S55 ; set bed temp
M190 S55 ; wait for bed temp
M109 S200 ; wait for extruder temp
G28 W ; home all without mesh bed level
G80 X114.259 Y66.3536 W20.4891 H13.5825 ; mesh bed levelling

G1 Z0.2 F720
G1 Y-3 F1000 ; go outside print area
G92 E0
G1 X60 E9 F1000 ; intro line
G1 X100 E12.5 F1000 ; intro line

G92 E0
M221 S95

; Don't change E values below. Excessive value can damage the printer.
M907 E430 ; set extruder motor current
G21 ; set units to millimeters
G90 ; use absolute coordinates
M83 ; use relative distances for extrusion
M900 K0.05 ; Filament gcode LA 1.5
M900 K30 ; Filament gcode LA 1.0

M107
;LAYER_CHANGE
;Z:0.2
;HEIGHT:0.2
G1 E-.8 F2100
M73 P1 R7
M73 Q1 S7
G1 Z.6 F10800
G1 X114.856 Y69.82
G1 Z.2
G1 E.8 F2100
M204 S1000
;TYPE:Skirt/Brim
;WIDTH:0.45
G1 F2400
G1 X115.971 Y68.696 E.05359
G1 X118.975 Y66.961 E.11742
G1 X120.484 Y66.557 E.05288
G1 X128.522 Y66.557 E.27208
G1 X130.031 Y66.961 E.05288
G1 X133.035 Y68.696 E.11742
G1 X134.129 Y69.781 E.05215
G1 X134.544 Y71.309 E.05359
G1 X134.544 Y74.98 E.12426
G1 X134.151 Y76.47 E.05216
G1 X133.035 Y77.594 E.05361
G1 X130.031 Y79.328 E.11741
G1 X128.522 Y79.733 E.05289
G1 X120.484 Y79.733 E.27208
G1 X118.975 Y79.328 E.05289
G1 X115.971 Y77.594 E.11741
G1 X114.878 Y76.508 E.05215
G1 X114.462 Y74.98 E.0536
G1 X114.462 Y71.309 E.12426
G1 X114.84 Y69.878 E.0501
G1 X115.245 Y69.993 F10800
G1 F2400
G1 X115.262 Y69.933 E.00211
G1 X116.175 Y69.048 E.04304
G1 X119.179 Y67.314 E.11741
G1 X120.484 Y66.964 E.04573
G1 X128.522 Y66.964 E.27208
G1 X129.828 Y67.314 E.04577
M73 Q2 S7
G1 X132.832 Y69.048 E.11741
G1 X133.828 Y70.076 E.04845
M73 P2 R7
G1 X134.137 Y71.309 E.04303
G1 X134.137 Y74.98 E.12426
G1 X133.745 Y76.357 E.04846
G1 X132.832 Y77.241 E.04302
G1 X129.828 Y78.976 E.11742
G1 X128.522 Y79.325 E.04576
G1 X120.484 Y79.325 E.27208
G1 X119.179 Y78.976 E.04573
G1 X116.175 Y77.241 E.11742
G1 X115.179 Y76.213 E.04845
G1 X114.869 Y74.98 E.04303
G1 X114.869 Y71.309 E.12426
G1 X115.228 Y70.051 E.04428
G1 X115.63 Y70.176 F10800
G1 F2400
G1 X115.667 Y70.056 E.00425
G1 X116.378 Y69.401 E.03272
G1 X119.382 Y67.667 E.11741
G1 X120.484 Y67.371 E.03862
G1 X128.522 Y67.371 E.27208
G1 X129.624 Y67.667 E.03862
G1 X132.628 Y69.401 E.11741
G1 X133.518 Y70.366 E.04444
G1 X133.73 Y71.309 E.03272
G1 X133.73 Y74.98 E.12426
G1 X133.339 Y76.233 E.04443
G1 X132.628 Y76.889 E.03275
G1 X129.624 Y78.623 E.11741
G1 X128.522 Y78.918 E.03861
G1 X120.484 Y78.918 E.27208
G1 X119.382 Y78.623 E.03861
G1 X116.378 Y76.889 E.11741
G1 X115.489 Y75.924 E.04441
G1 X115.276 Y74.98 E.03276
G1 X115.276 Y71.309 E.12426
G1 X115.612 Y70.233 E.03816
;WIPE_START
G1 F8640
G1 X115.63 Y70.176 E-.0138
G1 X115.667 Y70.056 E-.029
G1 X116.378 Y69.401 E-.22322
G1 X118.381 Y68.245 E-.53398
;WIPE_END
G1 Z.6 F10800
; printing object 4way_connector id:0 copy 0
G1 X118.312 Y71.79
G1 Z.2
G1 E.8 F2100
;TYPE:Perimeter
;WIDTH:0.449999
G1 F2400
G1 X120.707 Y70.407 E.09361
G1 X128.299 Y70.407 E.25698
G1 X130.695 Y71.79 E.09364
G1 X130.695 Y73.145 E.04587
G1 X130.695 Y74.5 E.04587
G1 X128.299 Y75.883 E.09364
G1 X120.707 Y75.883 E.25698
G1 X118.312 Y74.5 E.09361
G1 X118.312 Y71.85 E.0897
G1 X117.905 Y71.555 F10800
;TYPE:External perimeter
G1 F2400
G1 X120.598 Y70 E.10526
G1 X128.409 Y70 E.26439
G1 X131.102 Y71.555 E.10526
G1 X131.102 Y73.145 E.05382
G1 X131.102 Y74.735 E.05382
G1 X128.409 Y76.29 E.10526
G1 X120.598 Y76.29 E.26439
M73 Q3 S7
G1 X117.905 Y74.735 E.10526
M73 P3 R7
G1 X117.905 Y71.615 E.10561
;WIPE_START
G1 F8640
G1 X117.905 Y71.555 E-.01385
G1 X120.598 Y70 E-.71804
G1 X120.893 Y70 E-.06811
;WIPE_END
G1 Z.6 F10800
G1 X128.551 Y70.693
G1 Z.2
G1 E.8 F2100
;TYPE:Solid infill
;WIDTH:0.460724
G1 F2400
G1 X130.389 Y72.531 E.0903
G1 X130.389 Y73.122 E.02053
G1 X127.979 Y70.712 E.1184
G1 X127.388 Y70.712 E.02053
G1 X130.389 Y73.713 E.14744
G1 X130.389 Y74.304 E.02053
G1 X126.798 Y70.712 E.17645
G1 X126.207 Y70.712 E.02053
G1 X130.027 Y74.533 E.1877
G1 X129.653 Y74.749 E.015
G1 X125.616 Y70.712 E.19834
G1 X125.025 Y70.712 E.02053
G1 X129.278 Y74.965 E.20895
G1 X128.903 Y75.182 E.01505
G1 X124.434 Y70.712 E.21959
G1 X123.843 Y70.712 E.02053
G1 X128.529 Y75.398 E.23023
G1 X128.218 Y75.577 E.01247
G1 X128.118 Y75.577 E.00347
G1 X123.252 Y70.712 E.23904
G1 X122.662 Y70.712 E.0205
G1 X127.527 Y75.577 E.23902
G1 X126.936 Y75.577 E.02053
G1 X122.071 Y70.712 E.23902
G1 X121.48 Y70.712 E.02053
G1 X126.345 Y75.577 E.23902
G1 X125.754 Y75.577 E.02053
G1 X120.889 Y70.712 E.23902
G1 X120.789 Y70.712 E.00347
G1 X120.478 Y70.892 E.01248
G1 X125.163 Y75.577 E.23018
G1 X124.572 Y75.577 E.02053
G1 X120.103 Y71.108 E.21956
G1 X119.729 Y71.324 E.015
G1 X123.982 Y75.577 E.20895
G1 X123.391 Y75.577 E.02053
G1 X119.354 Y71.541 E.19832
G1 X118.979 Y71.757 E.01503
G1 X122.8 Y75.577 E.1877
M73 Q4 S7
G1 X122.209 Y75.577 E.02053
G1 X118.617 Y71.986 E.17645
G1 X118.617 Y72.577 E.02053
M73 P4 R7
G1 X121.618 Y75.577 E.14742
G1 X121.027 Y75.577 E.02053
G1 X118.617 Y73.168 E.11838
G1 X118.617 Y73.759 E.02053
G1 X120.455 Y75.596 E.09028
M106 S84.15
;LAYER_CHANGE
;Z:0.4
;HEIGHT:0.2
;BEFORE_LAYER_CHANGE
G92 E0.0
;0.4


;WIPE_START
G1 F8640
G1 X118.617 Y73.759 E-.60003
G1 X118.617 Y73.168 E-.13646
G1 X118.812 Y73.362 E-.06351
;WIPE_END
G1 Z.4 F10800
;AFTER_LAYER_CHANGE
;0.4
G1 Z.8
G1 X120.654 Y76.083
G1 Z.4
G1 E.8 F2100
M204 S800
;TYPE:Perimeter
;WIDTH:0.449999
G1 F1404
G1 X118.112 Y74.615 E.09936
G1 X118.112 Y71.674 E.09955
G1 X120.654 Y70.207 E.09934
G1 X128.353 Y70.207 E.2606
G1 X130.895 Y71.674 E.09934
G1 X130.895 Y74.615 E.09955
G1 X128.353 Y76.083 E.09936
G1 X120.714 Y76.083 E.25857
M204 S1000
G1 X120.545 Y76.49 F10800
M204 S800
;TYPE:External perimeter
G1 F1404
G1 X117.705 Y74.85 E.11101
G1 X117.705 Y71.439 E.11546
G1 X120.545 Y69.8 E.11099
G1 X121.22 Y69.8 E.02285
G1 X127.787 Y69.8 E.22228
G1 X128.462 Y69.8 E.02285
G1 X131.302 Y71.439 E.11099
G1 X131.302 Y74.85 E.11546
G1 X128.462 Y76.49 E.11101
G1 X127.787 Y76.49 E.02285
G1 X121.22 Y76.49 E.22228
G1 X120.605 Y76.49 E.02082
M204 S1000
;WIPE_START
G1 F8640
G1 X120.545 Y76.49 E-.01385
G1 X117.705 Y74.85 E-.75725
G1 X117.705 Y74.725 E-.0289
;WIPE_END
G1 Z.8 F10800
G1 X119.349 Y71.271
M73 Q5 S7
G1 Z.4
G1 E.8 F2100
M73 P5 R7
;TYPE:Solid infill
;WIDTH:0.38292
G1 F1404
G1 X119.278 Y71.252 E.00208
G1 X119.297 Y71.323 E.00208
G1 X119.338 Y71.312 E.0012
;WIDTH:0.41646
G1 X119.179 Y71.407 E.00575
;WIDTH:0.449999
G1 X119.02 Y71.503 E.00629
G1 X118.417 Y72.105 E.02884
G1 X118.383 Y71.941 E.00567
;WIDTH:0.41646
G1 X118.348 Y71.776 E.00524
;WIDTH:0.38292
G1 X118.277 Y71.757 E.00208
G1 X118.296 Y71.828 E.00208
G1 X118.337 Y71.817 E.0012
G1 X118.417 Y72.681 F10800
;WIDTH:0.449999
G1 F1404
G1 X120.382 Y70.716 E.09406
G1 X121.162 Y70.512 E.02729
G1 X118.417 Y73.257 E.1314
G1 X118.417 Y73.832 E.01946
G1 X121.737 Y70.512 E.15893
G1 X122.313 Y70.512 E.0195
G1 X118.417 Y74.408 E.1865
G1 X118.763 Y74.638 E.01406
G1 X122.889 Y70.512 E.19751
G1 X123.465 Y70.512 E.0195
G1 X119.128 Y74.849 E.20761
G1 X119.493 Y75.06 E.01427
G1 X124.04 Y70.512 E.21769
G1 X124.616 Y70.512 E.0195
G1 X119.858 Y75.271 E.22779
G1 X120.223 Y75.481 E.01425
G1 X125.192 Y70.512 E.23786
G1 X125.767 Y70.512 E.01946
G1 X120.587 Y75.692 E.24796
G1 X121.078 Y75.777 E.01687
G1 X126.343 Y70.512 E.25203
G1 X126.919 Y70.512 E.0195
G1 X121.653 Y75.777 E.25206
G1 X122.229 Y75.777 E.0195
G1 X127.494 Y70.512 E.25203
G1 X128.07 Y70.512 E.0195
G1 X122.805 Y75.777 E.25203
G1 X123.381 Y75.777 E.0195
M73 Q6 S7
G1 X128.509 Y70.649 E.24547
G1 X128.874 Y70.86 E.01427
M73 P6 R7
G1 X123.956 Y75.777 E.2354
G1 X124.532 Y75.777 E.0195
G1 X129.239 Y71.071 E.2253
G1 X129.604 Y71.281 E.01425
G1 X125.108 Y75.777 E.21522
G1 X125.683 Y75.777 E.01946
G1 X129.969 Y71.492 E.20514
G1 X130.334 Y71.703 E.01427
G1 X126.259 Y75.777 E.19504
G1 X126.835 Y75.777 E.0195
G1 X130.589 Y72.023 E.1797
G1 X130.675 Y71.911 E.00478
;WIDTH:0.41646
G1 X130.761 Y71.799 E.00439
;WIDTH:0.38292
G1 X130.72 Y71.81 E.0012
G1 X130.701 Y71.739 E.00208
G1 X130.772 Y71.758 E.00208
G1 X130.589 Y72.599 F10800
;WIDTH:0.449999
G1 F1404
G1 X127.41 Y75.777 E.15215
G1 X127.986 Y75.777 E.0195
G1 X130.589 Y73.174 E.1246
G1 X130.589 Y73.75 E.0195
G1 X128.835 Y75.485 E.08351
;WIDTH:0.41646
G1 X128.712 Y75.59 E.00502
;WIDTH:0.38292
G1 X128.641 Y75.571 E.00208
G1 X128.66 Y75.642 E.00208
G1 X128.701 Y75.631 E.0012
;WIPE_START
G1 F8640
G1 X128.66 Y75.642 E-.0098
G1 X128.641 Y75.571 E-.01697
G1 X128.712 Y75.59 E-.01697
G1 X128.835 Y75.485 E-.03734
G1 X130.589 Y73.75 E-.56967
G1 X130.589 Y73.174 E-.133
G1 X130.539 Y73.224 E-.01625
;WIPE_END
G1 Z.8 F10800
G1 X130.594 Y74.46
G1 Z.4
G1 E.8 F2100
;WIDTH:0.525808
G1 F1404
G1 X130.536 Y74.476 E.00242
G1 X130.493 Y74.433 E.00244
G1 X130.509 Y74.375 E.00242
G1 X130.567 Y74.359 E.00242
G1 X130.61 Y74.402 E.00244
M106 S170.85
;LAYER_CHANGE
;Z:0.6
;HEIGHT:0.2
;BEFORE_LAYER_CHANGE
G92 E0.0
;0.6


;WIPE_START
G1 F8640
G1 X130.567 Y74.359 E-.01404
G1 X130.509 Y74.375 E-.01389
G1 X130.493 Y74.433 E-.01389
G1 X130.536 Y74.476 E-.01404
G1 X130.594 Y74.46 E-.01389
;WIPE_END
G1 E-.73025 F2100
G1 Z.6 F10800
;AFTER_LAYER_CHANGE
;0.6
G1 Z.6
G1 X130.895 Y74.615
G1 E.8 F2100
M204 S800
;TYPE:Perimeter
;WIDTH:0.449999
G1 F1401
G1 X128.353 Y76.083 E.09936
G1 X120.654 Y76.083 E.2606
G1 X118.112 Y74.615 E.09936
G1 X118.112 Y71.674 E.09955
G1 X120.654 Y70.207 E.09934
G1 X128.353 Y70.207 E.2606
M73 P6 R6
G1 X130.895 Y71.674 E.09934
M73 P7 R6
M73 Q7 S7
G1 X130.895 Y74.555 E.09752
M204 S1000
G1 X131.302 Y74.85 F10800
M73 Q7 S6
M204 S800
;TYPE:External perimeter
G1 F1401
G1 X128.462 Y76.49 E.11101
G1 X120.545 Y76.49 E.26798
G1 X117.705 Y74.85 E.11101
G1 X117.705 Y71.439 E.11546
G1 X120.545 Y69.8 E.11099
G1 X128.462 Y69.8 E.26798
G1 X131.302 Y71.439 E.11099
G1 X131.302 Y74.79 E.11343
M204 S1000
;WIPE_START
G1 F8640
G1 X131.302 Y74.85 E-.01385
G1 X128.462 Y76.49 E-.75725
G1 X128.337 Y76.49 E-.0289
;WIPE_END
G1 Z1 F10800
G1 X118.298 Y74.458
G1 Z.6
G1 E.8 F2100
;TYPE:Solid infill
;WIDTH:0.38292
G1 F1401
G1 X118.279 Y74.53 E.00211
G1 X118.35 Y74.511 E.00208
G1 X118.339 Y74.469 E.00123
;WIDTH:0.41646
G1 X118.378 Y74.327 E.00457
;WIDTH:0.449999
G1 X118.417 Y74.185 E.00498
G1 X119.02 Y74.787 E.02884
G1 X119.179 Y74.882 E.00627
;WIDTH:0.41646
G1 X119.338 Y74.978 E.00577
;WIDTH:0.38292
G1 X119.349 Y75.019 E.0012
G1 X119.278 Y75.038 E.00208
G1 X119.297 Y74.967 E.00208
;WIPE_START
G1 F8640
G1 X119.278 Y75.038 E-.01697
G1 X119.349 Y75.019 E-.01697
G1 X119.338 Y74.978 E-.0098
G1 X119.179 Y74.882 E-.04289
G1 X119.02 Y74.787 E-.04277
G1 X118.417 Y74.185 E-.19674
G1 X118.378 Y74.327 E-.034
G1 X118.339 Y74.469 E-.034
G1 X118.35 Y74.511 E-.01003
G1 X118.279 Y74.53 E-.01697
G1 X118.298 Y74.458 E-.01719
;WIPE_END
G1 E-.36167 F2100
G1 Z1 F10800
G1 X120.382 Y75.573
G1 Z.6
G1 E.8 F2100
;WIDTH:0.449999
G1 F1401
G1 X118.417 Y73.609 E.09404
G1 X118.417 Y73.033 E.0195
G1 X121.162 Y75.777 E.13138
G1 X121.737 Y75.777 E.01946
G1 X118.417 Y72.457 E.15893
G1 X118.417 Y71.882 E.01946
G1 X122.313 Y75.777 E.18648
G1 X122.889 Y75.777 E.0195
G1 X118.763 Y71.651 E.19751
G1 X119.128 Y71.441 E.01425
G1 X123.465 Y75.777 E.20759
G1 X124.04 Y75.777 E.01946
M73 Q8 S6
G1 X119.493 Y71.23 E.21766
G1 X119.858 Y71.019 E.01427
M73 P8 R6
G1 X124.616 Y75.777 E.22776
G1 X125.192 Y75.777 E.0195
G1 X120.223 Y70.808 E.23786
G1 X120.587 Y70.598 E.01422
G1 X125.767 Y75.777 E.24794
G1 X126.343 Y75.777 E.0195
G1 X121.078 Y70.512 E.25203
G1 X121.653 Y70.512 E.01946
G1 X126.919 Y75.777 E.25206
G1 X127.494 Y75.777 E.01946
G1 X122.229 Y70.512 E.25203
G1 X122.805 Y70.512 E.0195
G1 X128.07 Y75.777 E.25203
G1 X128.509 Y75.64 E.01557
G1 X123.381 Y70.512 E.24547
G1 X123.956 Y70.512 E.01946
G1 X128.874 Y75.43 E.23542
G1 X129.239 Y75.219 E.01427
G1 X124.532 Y70.512 E.22532
G1 X125.108 Y70.512 E.0195
G1 X129.604 Y75.008 E.21522
G1 X129.969 Y74.797 E.01427
G1 X125.683 Y70.512 E.20514
G1 X126.259 Y70.512 E.0195
G1 X130.334 Y74.587 E.19507
G1 X130.526 Y74.532 E.00676
M73 P9 R6
M73 Q9 S6
;WIDTH:0.41646
G1 X130.718 Y74.476 E.00621
;WIDTH:0.38292
G1 X130.699 Y74.547 E.00208
G1 X130.77 Y74.528 E.00208
G1 X130.759 Y74.487 E.0012
;WIDTH:0.449999
G1 X130.589 Y74.267 E.00941
G1 X126.835 Y70.512 E.17973
G1 X127.41 Y70.512 E.01946
G1 X130.589 Y73.691 E.15218
G1 X130.589 Y73.115 E.0195
G1 X127.986 Y70.512 E.1246
G1 X128.66 Y70.647 E.02327
;WIDTH:0.38292
G1 X128.641 Y70.718 E.00208
G1 X128.712 Y70.699 E.00208
G1 X128.701 Y70.658 E.0012
;WIDTH:0.41646
G1 X128.83 Y70.784 E.0056
;WIDTH:0.449999
G1 X130.589 Y72.54 E.08413
G1 X130.594 Y71.83 E.02403
;WIDTH:0.525808
G1 X130.61 Y71.888 E.00242
G1 X130.567 Y71.931 E.00244
G1 X130.509 Y71.915 E.00242
G1 X130.493 Y71.857 E.00242
G1 X130.536 Y71.814 E.00244
M106 S255
;LAYER_CHANGE
;Z:0.8
;HEIGHT:0.2
;BEFORE_LAYER_CHANGE
G92 E0.0
;0.8


;WIPE_START
G1 F8640
G1 X130.493 Y71.857 E-.01404
G1 X130.509 Y71.915 E-.01389
G1 X130.567 Y71.931 E-.01389
G1 X130.61 Y71.888 E-.01404
G1 X130.594 Y71.83 E-.01389
G1 X130.589 Y72.54 E-.16395
G1 X128.853 Y70.807 E-.5663
;WIPE_END
G1 Z.8 F10800
;AFTER_LAYER_CHANGE
;0.8
G1 Z1.2
G1 X130.895 Y71.674
G1 Z.8
G1 E.8 F2100
M204 S800
;TYPE:Perimeter
;WIDTH:0.449999
G1 F1448
G1 X130.895 Y74.615 E.09955
G1 X128.353 Y76.083 E.09936
G1 X120.654 Y76.083 E.2606
G1 X118.112 Y74.615 E.09936
G1 X118.112 Y71.674 E.09955
G1 X120.654 Y70.207 E.09934
G1 X128.353 Y70.207 E.2606
G1 X130.843 Y71.644 E.09731
M204 S1000
G1 X131.302 Y71.439 F10800
M204 S800
;TYPE:External perimeter
G1 F1448
G1 X131.302 Y74.85 E.11546
G1 X128.462 Y76.49 E.11101
G1 X120.545 Y76.49 E.26798
G1 X117.705 Y74.85 E.11101
G1 X117.705 Y71.439 E.11546
G1 X120.545 Y69.8 E.11099
G1 X128.462 Y69.8 E.26798
G1 X131.25 Y71.409 E.10896
M73 Q10 S6
M204 S1000
;WIPE_START
G1 F8640
G1 X131.302 Y71.439 E-.01386
G1 X131.302 Y74.844 E-.78614
;WIPE_END
G1 Z1.2 F10800
M73 P10 R6
G1 X127.319 Y70.329
G1 Z.8
G1 E.8 F2100
;TYPE:Internal infill
;WIDTH:0.45
G1 F1448
G1 X126.856 Y70.792 E.02216
;WIPE_START
G1 F8640
G1 X127.319 Y70.329 E-.15119
;WIPE_END
G1 E-.64881 F2100
G1 Z1.2 F10800
G1 X120.735 Y70.512
G1 Z.8
G1 E.8 F2100
;TYPE:Solid infill
;WIDTH:0.449999
G1 F1448
G1 X120.957 Y70.512 E.00751
G1 X121.166 Y70.776 E.0114
G1 X121.166 Y71.678 E.03053
G1 X121.317 Y71.875 E.0084
G1 X121.587 Y71.881 E.00914
G1 X121.361 Y72.04 E.00935
G1 X118.763 Y74.638 E.12436
G1 X118.417 Y74.439 E.01351
G1 X118.417 Y71.851 E.0876
G1 X120.559 Y70.614 E.08373
G1 X120.759 Y70.969 E.01379
G1 X120.765 Y71.768 E.02705
G1 X120.903 Y71.922 E.007
G1 X118.825 Y74.001 E.0995
G1 X118.825 Y72.086 E.06482
G1 X120.582 Y71.071 E.06868
G1 X120.338 Y71.699 E.02281
;WIDTH:0.479618
G1 X120.372 Y71.857 E.00587
G1 X119.246 Y72.982 E.0578
G1 X119.246 Y72.329 E.02371
G1 X120.162 Y71.8 E.03841
;WIPE_START
G1 F8640
G1 X119.246 Y72.329 E-.24424
G1 X119.246 Y72.982 E-.15078
G1 X120.372 Y71.857 E-.36753
G1 X120.338 Y71.699 E-.03732
G1 X120.338 Y71.698 E-.00013
;WIPE_END
G1 Z1.2 F10800
G1 X121.688 Y71.839
G1 Z.8
G1 E.8 F2100
;WIDTH:0.38292
G1 F1448
G1 X121.913 Y71.555 E.01024
;WIDTH:0.41646
G1 X122.024 Y71.411 E.00565
;WIDTH:0.449999
G1 X122.134 Y71.267 E.00613
G1 X122.889 Y70.512 E.03614
G1 X122.72 Y70.484 E.0058
;WIDTH:0.41646
