; generated by PrusaSlicer 2.9.2 on 2025-11-04 at 13:24:57 UTC


;
;
; 

; external perimeters extrusion width = 0.45mm
; perimeters extrusion width = 0.45mm
; infill extrusion width = 0.45mm
; solid infill extrusion width = 0.45mm
; top infill extrusion width = 0.45mm
; first layer extrusion width = 0.45mm

M73 P0 R12
M73 Q0 S12
M201 X1000 Y1000 Z200 E5000 ; sets maximum accelerations, mm/sec^2
M203 X200 Y200 Z12 E120 ; sets maximum feedrates, mm / sec
M204 S1250 T1250 ; sets acceleration (S) and retract acceleration (R), mm/sec^2
M205 X8.00 Y8.00 Z0.40 E4.50 ; sets the jerk limits, mm/sec
M205 S0 T0 ; sets the minimum extruding and travel feed rate, mm/sec

; printing object UC_imperfect id:0 copy 0
; stop printing object UC_imperfect id:0 copy 0

;TYPE:Custom
M862.3 P "MK3S" ; printer model check
M862.1 P0.4 ; nozzle diameter check
M115 U3.13.2 ; tell printer latest fw version
G90 ; use absolute coordinates
M83 ; extruder relative mode
M104 S200 ; set extruder temp
M140 S55 ; set bed temp
M190 S55 ; wait for bed temp
M109 S200 ; wait for extruder temp
G28 W ; home all without mesh bed level
G80 X78.9704 Y105.531 W44.5216 H44.4888 ; mesh bed levelling

G1 Z0.2 F720
G1 Y-3 F1000 ; go outside print area
G92 E0
G1 X60 E9 F1000 ; intro line
G1 X100 E12.5 F1000 ; intro line

G92 E0
M221 S95

; Don't change E values below. Excessive value can damage the printer.
M907 E430 ; set extruder motor current
G21 ; set units to millimeters
G90 ; use absolute coordinates
M83 ; use relative distances for extrusion
M900 K0.05 ; Filament gcode LA 1.5
M900 K30 ; Filament gcode LA 1.0

M107
;LAYER_CHANGE
;Z:0.2
;HEIGHT:0.2
G1 E-.8 F2100
G1 Z.6 F10800
G1 X83.477 Y106.499
G1 Z.2
G1 E.8 F2100
M204 S1000
;TYPE:Skirt/Brim
;WIDTH:0.45
G1 F2400
G1 X85.343 Y105.735 E.06825
G1 X117.199 Y105.981 E1.07832
M73 Q1 S12
G1 X119.025 Y106.746 E.06701
M73 P1 R12
G1 X122.323 Y110.044 E.15787
G1 X123.087 Y111.873 E.06709
G1 X123.288 Y143.684 E1.07679
G1 X122.524 Y145.547 E.06816
G1 X119.226 Y148.845 E.15787
G1 X117.396 Y149.61 E.06714
G1 X85.099 Y149.817 E1.09324
G1 X83.237 Y149.052 E.06814
G1 X79.938 Y145.754 E.1579
G1 X79.174 Y143.889 E.06822
G1 X79.414 Y111.624 E1.09216
G1 X80.178 Y109.798 E.067
G1 X83.434 Y106.542 E.15586
G1 X83.722 Y106.83 F10800
G1 F2400
G1 X83.765 Y106.787 E.00206
G1 X85.34 Y106.142 E.05761
G1 X117.196 Y106.388 E1.07832
G1 X118.737 Y107.033 E.05655
G1 X122.035 Y110.331 E.15787
G1 X122.68 Y111.876 E.05667
G1 X122.881 Y143.687 E1.07679
G1 X122.236 Y145.259 E.05752
G1 X118.938 Y148.557 E.15787
G1 X117.394 Y149.203 E.05665
G1 X85.097 Y149.41 E1.09324
G1 X83.524 Y148.764 E.05756
G1 X80.226 Y145.466 E.15787
G1 X79.581 Y143.892 E.05758
G1 X79.821 Y111.627 E1.09216
G1 X80.466 Y110.086 E.05655
M73 P2 R12
M73 Q2 S12
G1 X83.68 Y106.872 E.15385
;WIPE_START
G1 F8640
G1 X83.722 Y106.83 E-.01371
G1 X83.765 Y106.787 E-.01404
G1 X85.34 Y106.142 E-.39299
G1 X86.982 Y106.155 E-.37926
;WIPE_END
G1 Z.6 F10800
; printing object UC_imperfect id:0 copy 0
G1 X83.391 Y144.338
G1 Z.2
G1 E.8 F2100
;TYPE:Perimeter
;WIDTH:0.449999
G1 F2400
G1 X85.144 Y143.847 E.06162
G1 X84.652 Y145.599 E.0616
G1 X83.434 Y144.381 E.0583
;WIPE_START
G1 F8640
G1 X83.391 Y144.338 E-.01404
G1 X85.144 Y143.847 E-.42035
G1 X84.716 Y145.372 E-.36561
;WIPE_END
G1 Z.6 F10800
G1 X85.384 Y111.705
G1 Z.2
G1 E.8 F2100
G1 F2400
G1 X83.631 Y111.214 E.06162
G1 X84.892 Y109.953 E.06036
G1 X85.368 Y111.647 E.05956
;WIPE_START
G1 F8640
G1 X85.384 Y111.705 E-.01389
G1 X83.631 Y111.214 E-.42035
G1 X84.751 Y110.093 E-.36576
;WIPE_END
G1 Z.6 F10800
G1 X117.118 Y111.951
G1 Z.2
G1 E.8 F2100
G1 F2400
G1 X117.609 Y110.198 E.06162
G1 X118.87 Y111.459 E.06036
G1 X117.175 Y111.935 E.05959
;WIPE_START
G1 F8640
G1 X117.118 Y111.951 E-.01367
G1 X117.609 Y110.198 E-.42035
G1 X118.73 Y111.319 E-.36598
;WIPE_END
G1 Z.6 F10800
G1 X117.318 Y143.64
G1 Z.2
G1 E.8 F2100
G1 F2400
G1 X118.072 Y143.863 E.02661
G1 X119.071 Y144.131 E.03501
G1 X117.81 Y145.392 E.06036
G1 X117.334 Y143.697 E.05959
;WIPE_START
G1 F8640
G1 X117.318 Y143.64 E-.01367
G1 X118.072 Y143.863 E-.18156
G1 X119.071 Y144.131 E-.23883
G1 X117.95 Y145.252 E-.36594
;WIPE_END
G1 Z.6 F10800
G1 X102.642 Y129.404
G1 Z.2
G1 E.8 F2100
G1 F2400
G1 X102.09 Y129.196 E.01997
G1 X101.531 Y129.091 E.01925
G1 X101.156 Y129.08 E.0127
G1 X100.598 Y129.105 E.01891
G1 X100.09 Y129.218 E.01762
G1 X99.623 Y129.403 E.017
G1 X99.846 Y128.788 E.02214
G1 X99.948 Y128.169 E.02123
G1 X99.938 Y127.528 E.0217
G1 X99.813 Y126.888 E.02207
G1 X99.616 Y126.38 E.01844
G1 X100.335 Y126.643 E.02591
G1 X100.956 Y126.727 E.02121
G1 X101.488 Y126.706 E.01802
G1 X102.077 Y126.599 E.02026
G1 X102.653 Y126.388 E.02076
G1 X102.389 Y127.121 E.02637
G1 X102.308 Y127.743 E.02123
G1 X102.337 Y128.382 E.02165
G1 X102.443 Y128.872 E.01697
G1 X102.621 Y129.348 E.0172
G1 X102.99 Y129.163 F10800
;TYPE:External perimeter
G1 F2400
G1 X103.149 Y129.498 E.01255
;WIDTH:0.451842
G1 X103.502 Y129.981 E.02034
G1 X106.061 Y132.502 E.12214
;WIDTH:0.450644
G1 X106.211 Y132.649 E.00712
;WIDTH:0.450234
G1 X112.151 Y138.4 E.28002
;WIDTH:0.451671
G1 X117.077 Y143.109 E.23162
;WIDTH:0.450892
G1 X117.174 Y143.173 E.00394
G1 X118.173 Y143.468 E.03534
;WIDTH:0.449999
G1 X118.178 Y143.469 E.00017
G1 X119.857 Y143.921 E.05886
G1 X117.599 Y146.178 E.10807
G1 X117.147 Y144.494 E.05902
;WIDTH:0.450869
G1 X116.852 Y143.498 E.03524
G1 X116.796 Y143.403 E.00374
;WIDTH:0.451671
G1 X111.87 Y138.694 E.23162
;WIDTH:0.450238
G1 X105.928 Y132.941 E.28012
;WIDTH:0.450644
G1 X105.775 Y132.793 E.00722
;WIDTH:0.451842
G1 X103.215 Y130.272 E.12217
;WIDTH:0.454236
G1 X102.736 Y129.909 E.02056
;WIDTH:0.449999
G1 X102.357 Y129.717 E.01438
G1 X101.93 Y129.574 E.01524
G1 X101.417 Y129.485 E.01762
G1 X100.894 Y129.493 E.0177
G1 X100.345 Y129.578 E.0188
G1 X99.943 Y129.711 E.01433
G1 X99.505 Y129.934 E.01664
;WIDTH:0.451939
G1 X99.062 Y130.251 E.01853
G1 X85.663 Y143.616 E.64364
;WIDTH:0.450833
G1 X85.611 Y143.702 E.00341
G1 X85.315 Y144.701 E.03534
;WIDTH:0.449999
G1 X84.863 Y146.385 E.05902
G1 X82.605 Y144.128 E.10807
G1 X84.29 Y143.675 E.05906
;WIDTH:0.450832
G1 X85.288 Y143.38 E.0353
M73 Q3 S12
G1 X85.375 Y143.327 E.00346
;WIDTH:0.451939
G1 X98.773 Y129.961 E.64364
;WIDTH:0.45545
G1 X99.203 Y129.332 E.02614
M73 P3 R12
;WIDTH:0.449999
G1 X99.445 Y128.716 E.0224
G1 X99.54 Y128.167 E.01886
G1 X99.538 Y127.606 E.01899
G1 X99.402 Y126.927 E.02344
G1 X99.152 Y126.364 E.02085
;WIDTH:0.451866
G1 X98.763 Y125.821 E.02271
G1 X96.775 Y123.803 E.09632
;WIDTH:0.45055
G1 X90.704 Y117.547 E.29548
G1 X85.62 Y112.228 E.24939
;WIDTH:0.450118
G1 X85.531 Y112.173 E.00354
G1 X84.529 Y111.877 E.03538
;WIDTH:0.449999
G1 X82.845 Y111.424 E.05903
G1 X85.103 Y109.166 E.10809
G1 X85.547 Y110.821 E.058
;WIDTH:0.450115
G1 X85.85 Y111.847 E.03622
G1 X85.914 Y111.946 E.00399
;WIDTH:0.450553
G1 X91.011 Y117.278 E.25002
G1 X97.077 Y123.528 E.29521
;WIDTH:0.451866
G1 X99.054 Y125.534 E.09577
;WIDTH:0.453324
G1 X99.671 Y125.965 E.02568
;WIDTH:0.449999
G1 X100.397 Y126.24 E.02628
G1 X101.072 Y126.315 E.02299
G1 X101.616 Y126.29 E.01843
G1 X102.146 Y126.162 E.01846
G1 X102.66 Y125.935 E.01902
;WIDTH:0.451858
G1 X103.203 Y125.543 E.02277
G1 X116.599 Y112.182 E.64335
;WIDTH:0.449999
G1 X116.65 Y112.096 E.00338
G1 X116.946 Y111.097 E.03527
G1 X117.399 Y109.412 E.05906
G1 X119.656 Y111.67 E.10807
G1 X117.972 Y112.122 E.05902
G1 X116.973 Y112.418 E.03527
G1 X116.886 Y112.47 E.00343
;WIDTH:0.451858
G1 X103.492 Y125.833 E.64335
;WIDTH:0.453128
G1 X103.075 Y126.422 E.02462
;WIDTH:0.449999
G1 X102.792 Y127.181 E.02742
G1 X102.719 Y127.829 E.02207
G1 X102.749 Y128.402 E.01942
G1 X102.88 Y128.933 E.01851
G1 X102.964 Y129.109 E.0066
;WIPE_START
G1 F8640
G1 X102.99 Y129.163 E-.01384
G1 X103.149 Y129.498 E-.08562
G1 X103.502 Y129.981 E-.13814
G1 X105.237 Y131.691 E-.5624
;WIPE_END
G1 Z.6 F10800
G1 X102.235 Y127.369
G1 Z.2
G1 E.8 F2100
;TYPE:Solid infill
;WIDTH:0.500567
G1 F2400
G1 X101.835 Y126.969 E.02153
G1 X101.61 Y127.006 E.00868
G1 X101.24 Y127.021 E.01409
G1 X102.004 Y127.785 E.04112
G1 X102.048 Y128.476 E.02635
G1 X100.55 Y126.979 E.08059
G1 X100.283 Y126.944 E.01025
G1 X100.116 Y126.895 E.00662
G1 X100.193 Y127.268 E.01449
G1 X101.751 Y128.827 E.08387
G1 X101.369 Y128.769 E.0147
G1 X101.055 Y128.777 E.01195
G1 X100.252 Y127.975 E.04319
G1 X100.253 Y128.177 E.00769
G1 X100.191 Y128.561 E.0148
G1 X100.614 Y128.984 E.02276
;WIPE_START
G1 F8640
G1 X100.191 Y128.561 E-.13813
G1 X100.253 Y128.177 E-.08981
G1 X100.252 Y127.975 E-.04664
G1 X101.055 Y128.777 E-.26205
G1 X101.369 Y128.769 E-.07253
G1 X101.751 Y128.827 E-.08922
G1 X101.44 Y128.516 E-.10162
;WIPE_END
G1 Z.6 F10800
G1 X84.773 Y144.679
G1 Z.2
G1 E.8 F2100
;WIDTH:0.465777
G1 F2400
G1 X84.456 Y144.362 E.01576
G1 X83.988 Y144.492 E.01708
G1 X84.647 Y145.151 E.03277
;WIPE_START
G1 F8640
G1 X83.988 Y144.492 E-.21519
G1 X84.456 Y144.362 E-.11215
G1 X84.773 Y144.679 E-.10352
;WIPE_END
G1 E-.36914 F2100
G1 Z.6 F10800
G1 X85.201 Y111.521
G1 Z.2
G1 E.8 F2100
;WIDTH:0.519376
G1 F2400
G1 X84.349 Y110.669 E.04774
;WIPE_START
G1 F8640
G1 X85.201 Y111.521 E-.27822
;WIPE_END
G1 E-.52178 F2100
G1 Z.6 F10800
G1 X117.614 Y110.646
G1 Z.2
G1 E.8 F2100
;WIDTH:0.464785
G1 F2400
G1 X118.274 Y111.305 E.03272
G1 X117.807 Y111.435 E.017
G1 X117.484 Y111.113 E.016
;WIPE_START
G1 F8640
G1 X117.807 Y111.435 E-.10531
G1 X118.274 Y111.305 E-.11193
G1 X117.614 Y110.646 E-.21536
;WIPE_END
G1 E-.3674 F2100
G1 Z.6 F10800
G1 X118.355 Y144.675
G1 Z.2
G1 E.8 F2100
;WIDTH:0.51949
G1 F2400
G1 X117.502 Y143.822 E.0478
M106 S84.15
;LAYER_CHANGE
;Z:0.4
;HEIGHT:0.2
;BEFORE_LAYER_CHANGE
G92 E0.0
;0.4


;WIPE_START
G1 F8640
G1 X118.355 Y144.675 E-.27854
;WIPE_END
G1 E-.52146 F2100
G1 Z.4 F10800
;AFTER_LAYER_CHANGE
;0.4
G1 Z.8
G1 X84.755 Y145.985
G1 Z.4
M73 Q4 S12
G1 E.8 F2100
M204 S800
;TYPE:Perimeter
;WIDTH:0.449999
G1 F2113.604
G1 X83.006 Y144.235 E.08375
G1 F2122.333
M73 P4 R12
G1 X84.201 Y143.915 E.04187
G1 F2121.743
G1 X85.297 Y143.612 E.03849
;WIDTH:0.432588
G1 F2120.859
G1 X85.515 Y143.476 E.00833
;WIDTH:0.432583
G1 F2121.785
G1 X85.378 Y143.693 E.00831
;WIDTH:0.449999
G1 F2122.665
G1 X85.076 Y144.79 E.03851
G1 F2123.253
G1 X84.771 Y145.927 E.03985
M204 S1000
;WIPE_START
G1 F8640
G1 X84.755 Y145.985 E-.01389
G1 X83.006 Y144.235 E-.57129
G1 X83.904 Y143.994 E-.21482
;WIPE_END
G1 Z.8 F10800
G1 X85.515 Y143.476
G1 Z.4
G1 E.8 F2100
M204 S800
;WIDTH:0.390262
G1 F2131.104
G1 X85.551 Y143.439 E.00149
;WIDTH:0.391098
G1 F2400
G1 X98.821 Y130.203 E.54262
;WIDTH:0.397164
G1 X98.866 Y130.158 E.00187
M204 S1000
;WIPE_START
G1 F8640
G1 X98.821 Y130.203 E-.01469
G1 X96.413 Y132.605 E-.78531
;WIPE_END
G1 Z.8 F10800
G1 X85.781 Y112.102
G1 Z.4
G1 E.8 F2100
M204 S800
;WIDTH:0.411984
G1 F2125.715
G1 X85.66 Y112.02 E.00449
;WIDTH:0.437448
G1 F2121.557
G1 X85.538 Y111.937 E.00484
;WIDTH:0.449999
G1 F2122.906
G1 X84.441 Y111.637 E.0385
G1 F2123.331
G1 X83.245 Y111.317 E.04191
G1 F2113.621
G1 X84.996 Y109.567 E.0838
G1 F2121.606
G1 X85.316 Y110.762 E.04187
G1 X85.616 Y111.859 E.0385
;WIDTH:0.437448
G1 F2119.827
G1 X85.699 Y111.98 E.00481
;WIDTH:0.411984
G1 F2124.018
G1 X85.748 Y112.053 E.0027
M204 S1000
;WIPE_START
G1 F8640
G1 X85.781 Y112.102 E-.01364
G1 X85.66 Y112.02 E-.03375
G1 X85.538 Y111.937 E-.03407
G1 X84.441 Y111.637 E-.2626
G1 X83.245 Y111.317 E-.28587
G1 X83.766 Y110.796 E-.17007
;WIPE_END
G1 Z.8 F10800
G1 X98.862 Y125.63
G1 Z.4
G1 E.8 F2100
M204 S800
;WIDTH:0.395832
G1 F2400
G1 X98.815 Y125.584 E.00193
;WIDTH:0.3909
G1 X97.271 Y124.018 E.06363
;WIDTH:0.388838
G1 X96.92 Y123.659 E.01444
G1 X90.851 Y117.406 E.25064
;WIDTH:0.388338
G1 X90.526 Y117.068 E.01347
;WIDTH:0.38589
G1 F2397.103
G1 X85.8 Y112.121 E.19511
;WIDTH:0.38652
G1 F2131.908
G1 X85.781 Y112.102 E.00077
M204 S1000
;WIPE_START
G1 F8640
G1 X85.8 Y112.121 E-.0062
G1 X88.175 Y114.607 E-.7938
;WIPE_END
G1 Z.8 F10800
G1 X116.711 Y112.357
G1 Z.4
G1 E.8 F2100
M204 S800
;WIDTH:0.412573
G1 F2125.651
G1 X116.799 Y112.231 E.00472
;WIDTH:0.439307
G1 F2121.2
G1 X116.886 Y112.105 E.00505
;WIDTH:0.449999
G1 F2122.89
G1 X117.186 Y111.008 E.0385
G1 F2123.252
G1 X117.506 Y109.813 E.04187
G1 F2248.686
G1 X119.256 Y111.562 E.08375
G1 F2122.333
G1 X118.061 Y111.883 E.04188
G1 F2121.971
G1 X116.963 Y112.182 E.03852
;WIDTH:0.439312
G1 F2120.274
G1 X116.837 Y112.27 E.00507
;WIDTH:0.412575
G1 F2124.74
G1 X116.76 Y112.323 E.00287
M204 S1000
;WIPE_START
G1 F8640
G1 X116.711 Y112.357 E-.01377
G1 X116.799 Y112.231 E-.03549
G1 X116.886 Y112.105 E-.03536
G1 X117.186 Y111.008 E-.2626
G1 X117.506 Y109.813 E-.28565
G1 X118.018 Y110.325 E-.16713
;WIPE_END
G1 Z.8 F10800
G1 X103.403 Y125.632
G1 Z.4
G1 E.8 F2100
M204 S800
;WIDTH:0.39535
G1 F2400
G1 X103.436 Y125.599 E.00137
;WIDTH:0.390938
G1 X116.71 Y112.358 E.54255
;WIDTH:0.385838
G1 F2132.668
G1 X116.711 Y112.357 E.00004
M204 S1000
;WIPE_START
G1 F8640
G1 X116.71 Y112.358 E-.00033
G1 X114.258 Y114.804 E-.79967
;WIPE_END
G1 Z.8 F10800
G1 X103.375 Y125.661
G1 Z.4
G1 E.8 F2100
M204 S800
;WIDTH:0.449999
G1 F2400
G1 X103.078 Y126.008 E.01546
G1 X102.943 Y126.235 E.00894
G1 X102.705 Y126.768 E.01976
G1 X102.587 Y127.232 E.01621
G1 X102.505 Y127.902 E.02285
G1 X102.558 Y128.5 E.02032
G1 X102.644 Y128.825 E.01138
G1 X102.812 Y129.316 E.01757
G1 X103.08 Y129.79 E.01843
G1 X103.375 Y130.141 E.01552
G1 X103.027 Y129.843 E.01551
G1 X102.564 Y129.581 E.01801
G1 X102.051 Y129.393 E.01849
G1 X101.669 Y129.317 E.01318
G1 X101.192 Y129.281 E.01619
G1 X100.461 Y129.333 E.02481
G1 X99.761 Y129.553 E.02484
G1 X99.228 Y129.845 E.02057
G1 X99.05 Y129.998 E.00794
;WIDTH:0.424125
G1 X98.871 Y130.152 E.00748
;WIDTH:0.446671
G1 X99.118 Y129.883 E.01226
;WIDTH:0.449999
G1 X99.412 Y129.392 E.01937
G1 X99.62 Y128.848 E.01971
G1 X99.747 Y128.134 E.02455
G1 X99.739 Y127.729 E.01371
G1 X99.68 Y127.199 E.01805
G1 X99.477 Y126.543 E.02324
G1 X99.184 Y126.005 E.02074
G1 X99.033 Y125.827 E.0079
;WIDTH:0.424798
G1 X98.882 Y125.649 E.00741
G1 X99.106 Y125.832 E.00918
;WIDTH:0.449999
G1 X99.33 Y126.015 E.00979
G1 X99.965 Y126.325 E.02392
G1 X100.524 Y126.477 E.01961
G1 X101.128 Y126.53 E.02052
G1 X101.842 Y126.455 E.0243
G1 X102.379 Y126.297 E.01895
G1 X102.941 Y126.009 E.02138
G1 X103.328 Y125.698 E.01681
M204 S1000
;WIPE_START
G1 F8640
G1 X103.375 Y125.661 E-.01381
G1 X103.078 Y126.008 E-.10546
G1 X102.943 Y126.235 E-.06098
G1 X102.705 Y126.768 E-.13478
G1 X102.587 Y127.232 E-.11055
G1 X102.505 Y127.902 E-.15586
G1 X102.558 Y128.5 E-.13862
G1 X102.644 Y128.825 E-.07763
G1 X102.647 Y128.834 E-.00231
;WIPE_END
G1 Z.8 F10800
G1 X117.41 Y143.473
G1 Z.4
G1 E.8 F2100
M204 S800
G1 F2195.621
G1 X118.262 Y143.708 E.02992
G1 F2225.85
G1 X119.457 Y144.028 E.04187
G1 F2110.956
G1 X117.707 Y145.778 E.08377
G1 F2122.352
M73 Q5 S12
G1 X117.387 Y144.583 E.04187
G1 F2121.767
G1 X117.084 Y143.487 E.03849
;WIDTH:0.43275
G1 F2120.89
G1 X116.947 Y143.269 E.00835
G1 F2128.834
G1 X117.165 Y143.405 E.00833
;WIDTH:0.449999
G1 F2195.621
G1 X117.352 Y143.457 E.00657
M204 S1000
;WIPE_START
G1 F8640
G1 X117.41 Y143.473 E-.01389
G1 X118.262 Y143.708 E-.20408
G1 X119.457 Y144.028 E-.28565
G1 X118.549 Y144.936 E-.29638
;WIPE_END
G1 Z.8 F10800
G1 X103.375 Y130.141
G1 Z.4
M73 P5 R12
G1 E.8 F2100
M204 S800
;WIDTH:0.402968
G1 F2400
G1 X103.453 Y130.221 E.00335
;WIDTH:0.39083
G1 X105.918 Y132.648 E.10007
;WIDTH:0.3865
G1 X106.069 Y132.796 E.00604
;WIDTH:0.388304
G1 X112.713 Y139.224 E.26549
;WIDTH:0.385878
G1 F2384.487
G1 X116.902 Y143.223 E.16515
;WIDTH:0.390622
G1 F2131.305
G1 X116.947 Y143.269 E.00186
M204 S1000
G1 X117.226 Y142.993 F10800
M204 S800
;TYPE:External perimeter
;WIDTH:0.449999
G1 F2153.695
G1 X117.268 Y143.02 E.00169
G1 F2271.953
G1 X120.243 Y143.817 E.10425
G1 F2050.601
G1 X117.496 Y146.565 E.13152
G1 F2064.376
G1 X116.699 Y143.59 E.10425
G1 F2072.561
G1 X116.643 Y143.495 E.00373
G1 F2127.439
G1 X116.155 Y143.028 E.02286
G1 F2374.648
G1 X112.564 Y139.601 E.16802
G1 F2399.99
G1 X105.656 Y132.917 E.32536
G1 F2392.406
M73 P5 R11
G1 X103.188 Y130.491 E.11714
G1 X102.825 Y130.197 E.01581
G1 F2397.053
G1 X102.389 Y129.948 E.017
G1 X101.913 Y129.776 E.01713
G1 F2322.68
G1 X101.6 Y129.719 E.01077
G1 F2278.165
G1 X101.211 Y129.688 E.01321
