; generated by PrusaSlicer 2.9.2 on 2025-11-04 at 13:20:15 UTC


;
;
; 

; external perimeters extrusion width = 0.45mm
; perimeters extrusion width = 0.45mm
; infill extrusion width = 0.45mm
; solid infill extrusion width = 0.45mm
; top infill extrusion width = 0.45mm
; support material extrusion width = 0.35mm
; first layer extrusion width = 0.45mm

M73 P0 R4
M73 Q0 S5
M201 X1000 Y1000 Z200 E5000 ; sets maximum accelerations, mm/sec^2
M203 X200 Y200 Z12 E120 ; sets maximum feedrates, mm / sec
M204 S1250 T1250 ; sets acceleration (S) and retract acceleration (R), mm/sec^2
M205 X8.00 Y8.00 Z0.40 E4.50 ; sets the jerk limits, mm/sec
M205 S0 T0 ; sets the minimum extruding and travel feed rate, mm/sec

; printing object bracing id:0 copy 0
; stop printing object bracing id:0 copy 0

;TYPE:Custom
M862.3 P "MK3S" ; printer model check
M862.1 P0.4 ; nozzle diameter check
M115 U3.13.2 ; tell printer latest fw version
G90 ; use absolute coordinates
M83 ; extruder relative mode
M104 S200 ; set extruder temp
M140 S55 ; set bed temp
M190 S55 ; wait for bed temp
M109 S200 ; wait for extruder temp
G28 W ; home all without mesh bed level
G80 X74.5268 Y99.1012 W48.1283 H13.2924 ; mesh bed levelling

G1 Z0.2 F720
G1 Y-3 F1000 ; go outside print area
G92 E0
G1 X60 E9 F1000 ; intro line
G1 X100 E12.5 F1000 ; intro line
M73 P1 R4
M73 Q1 S4

G92 E0
M221 S95

; Don't change E values below. Excessive value can damage the printer.
M907 E430 ; set extruder motor current
G21 ; set units to millimeters
G90 ; use absolute coordinates
M83 ; use relative distances for extrusion
M900 K0.05 ; Filament gcode LA 1.5
M900 K30 ; Filament gcode LA 1.0

M107
;LAYER_CHANGE
;Z:0.2
;HEIGHT:0.2
G1 E-.8 F2100
M73 P2 R4
M73 Q2 S4
G1 Z.6 F10800
G1 X76.182 Y99.576
G1 Z.2
G1 E.8 F2100
M204 S1000
;TYPE:Skirt/Brim
;WIDTH:0.45
G1 F2400
G1 X77.341 Y99.305 E.04029
G1 X119.841 Y99.305 E1.43857
G1 X121.217 Y99.697 E.04843
G1 X122.18 Y100.756 E.04845
G1 X122.452 Y101.915 E.0403
G1 X122.452 Y109.579 E.25942
G1 X122.059 Y110.956 E.04847
G1 X121 Y111.919 E.04845
G1 X119.841 Y112.19 E.04029
M73 Q3 S4
G1 X77.341 Y112.19 E1.43857
G1 X75.965 Y111.798 E.04843
M73 P3 R4
G1 X75.002 Y110.739 E.04845
G1 X74.73 Y109.579 E.04033
G1 X74.73 Y101.915 E.25942
G1 X75.123 Y100.539 E.04844
G1 X76.137 Y99.617 E.04639
G1 X76.414 Y99.97 F10800
G1 F2400
G1 X76.562 Y99.854 E.00637
G1 X77.341 Y99.712 E.0268
G1 X119.841 Y99.712 E1.43857
G1 X121.094 Y100.103 E.04443
G1 X121.902 Y101.137 E.04442
G1 X122.045 Y101.915 E.02678
G1 X122.045 Y109.579 E.25942
G1 X121.654 Y110.832 E.04443
G1 X120.62 Y111.641 E.04444
G1 X119.841 Y111.783 E.0268
M73 Q4 S4
G1 X77.341 Y111.783 E1.43857
M73 P4 R4
G1 X76.088 Y111.392 E.04443
G1 X75.28 Y110.358 E.04442
G1 X75.137 Y109.579 E.02681
G1 X75.137 Y101.915 E.25942
G1 X75.528 Y100.662 E.04443
G1 X76.367 Y100.007 E.03603
;WIPE_START
G1 F8640
G1 X76.414 Y99.97 E-.01381
G1 X76.562 Y99.854 E-.04342
G1 X77.341 Y99.712 E-.18284
G1 X79.766 Y99.712 E-.55993
;WIPE_END
G1 Z.6 F10800
; printing object bracing id:0 copy 0
G1 X116.98 Y102.747
G1 Z.2
G1 E.8 F2100
;TYPE:Perimeter
;WIDTH:0.449999
G1 F2400
G1 X119.009 Y102.747 E.06868
G1 X119.009 Y103.762 E.03436
G1 X119.009 Y108.747 E.16874
G1 X116.98 Y108.747 E.06868
G1 X116.98 Y102.807 E.20106
G1 X116.573 Y102.34 F10800
;TYPE:External perimeter
G1 F2400
G1 X119.416 Y102.34 E.09623
G1 X119.416 Y103.762 E.04813
G1 X119.416 Y109.154 E.18251
G1 X116.573 Y109.154 E.09623
M73 P5 R4
M73 Q5 S4
G1 X116.573 Y102.4 E.22861
;WIPE_START
G1 F8640
G1 X116.573 Y102.34 E-.01385
G1 X119.416 Y102.34 E-.65646
G1 X119.416 Y102.902 E-.12969
;WIPE_END
G1 Z.6 F10800
G1 X118.887 Y103.708
G1 Z.2
G1 E.8 F2100
;TYPE:Solid infill
;WIDTH:0.457478
G1 F2400
G1 X118.231 Y103.053 E.03195
G1 X117.645 Y103.053 E.0202
G1 X118.704 Y104.111 E.0516
G1 X118.704 Y104.698 E.02023
G1 X117.286 Y103.28 E.06913
G1 X117.286 Y103.866 E.0202
G1 X118.704 Y105.284 E.06913
G1 X118.704 Y105.87 E.0202
G1 X117.286 Y104.452 E.06913
G1 X117.286 Y105.038 E.0202
G1 X118.704 Y106.457 E.06915
G1 X118.704 Y107.043 E.0202
G1 X117.286 Y105.625 E.06913
G1 X117.286 Y106.211 E.0202
G1 X118.704 Y107.629 E.06913
G1 X118.704 Y108.215 E.0202
G1 X117.286 Y106.797 E.06913
G1 X117.286 Y107.384 E.02023
G1 X118.344 Y108.442 E.05158
G1 X117.758 Y108.442 E.0202
G1 X117.102 Y107.787 E.03195
;WIPE_START
G1 F8640
G1 X117.758 Y108.442 E-.21405
G1 X118.344 Y108.442 E-.13531
G1 X117.286 Y107.384 E-.34549
G1 X117.286 Y106.929 E-.10515
;WIPE_END
G1 Z.6 F10800
G1 X80.202 Y108.747
G1 Z.2
G1 E.8 F2100
;TYPE:Perimeter
;WIDTH:0.449999
G1 F2400
G1 X78.173 Y108.747 E.06868
G1 X78.173 Y102.747 E.20309
G1 X80.202 Y102.747 E.06868
G1 X80.202 Y103.762 E.03436
G1 X80.202 Y108.687 E.16671
G1 X80.609 Y109.154 F10800
M73 P6 R4
M73 Q6 S4
;TYPE:External perimeter
G1 F2400
G1 X77.766 Y109.154 E.09623
G1 X77.766 Y102.34 E.23065
G1 X80.609 Y102.34 E.09623
G1 X80.609 Y103.762 E.04813
G1 X80.609 Y109.094 E.18048
;WIPE_START
G1 F8640
G1 X80.609 Y109.154 E-.01385
G1 X77.766 Y109.154 E-.65646
G1 X77.766 Y108.592 E-.12969
;WIPE_END
G1 Z.6 F10800
G1 X80.08 Y103.708
G1 Z.2
G1 E.8 F2100
;TYPE:Solid infill
;WIDTH:0.457478
G1 F2400
G1 X79.424 Y103.053 E.03195
G1 X78.838 Y103.053 E.0202
G1 X79.896 Y104.111 E.05158
G1 X79.896 Y104.698 E.02023
G1 X78.478 Y103.28 E.06913
G1 X78.478 Y103.866 E.0202
G1 X79.896 Y105.284 E.06913
G1 X79.896 Y105.87 E.0202
G1 X78.478 Y104.452 E.06913
G1 X78.478 Y105.038 E.0202
G1 X79.896 Y106.457 E.06915
G1 X79.896 Y107.043 E.0202
G1 X78.478 Y105.625 E.06913
G1 X78.478 Y106.211 E.0202
G1 X79.896 Y107.629 E.06913
G1 X79.896 Y108.215 E.0202
G1 X78.478 Y106.797 E.06913
G1 X78.478 Y107.384 E.02023
G1 X79.537 Y108.442 E.0516
G1 X78.951 Y108.442 E.0202
G1 X78.295 Y107.787 E.03195
M106 S84.15
;LAYER_CHANGE
;Z:0.4
;HEIGHT:0.2
;BEFORE_LAYER_CHANGE
G92 E0.0
;0.4


;WIPE_START
G1 F8640
G1 X78.951 Y108.442 E-.21405
G1 X79.537 Y108.442 E-.13531
G1 X78.478 Y107.384 E-.34565
G1 X78.478 Y106.93 E-.10499
;WIPE_END
G1 Z.4 F10800
;AFTER_LAYER_CHANGE
;0.4
G1 Z.8
G1 X116.78 Y108.947
G1 Z.4
M73 Q7 S4
G1 E.8 F2100
M204 S800
;TYPE:Perimeter
;WIDTH:0.449999
G1 F942
M73 P7 R4
G1 X116.78 Y102.547 E.21663
G1 X119.209 Y102.547 E.08222
G1 X119.209 Y108.947 E.21663
G1 X116.84 Y108.947 E.08019
M204 S1000
G1 X116.373 Y109.354 F10800
M204 S800
;TYPE:External perimeter
G1 F942
G1 X116.373 Y108.679 E.02285
G1 X116.373 Y102.815 E.19849
G1 X116.373 Y102.14 E.02285
G1 X119.616 Y102.14 E.10977
G1 X119.616 Y102.815 E.02285
G1 X119.616 Y108.679 E.19849
G1 X119.616 Y109.354 E.02285
G1 X116.433 Y109.354 E.10774
M204 S1000
;WIPE_START
G1 F8640
G1 X116.373 Y109.354 E-.01385
G1 X116.373 Y108.679 E-.15586
G1 X116.373 Y105.949 E-.63029
;WIPE_END
G1 Z.8 F10800
G1 X118.7 Y102.853
G1 Z.4
G1 E.8 F2100
M73 Q8 S4
;TYPE:Solid infill
G1 F942
M73 P8 R4
G1 X117.086 Y102.853 E.05463
G1 X117.086 Y108.642 E.19595
G1 X118.904 Y108.642 E.06154
G1 X118.904 Y102.853 E.19595
G1 X118.497 Y103.26 E.01948
G1 X118.497 Y108.235 E.1684
G1 X117.493 Y108.235 E.03398
G1 X117.493 Y103.26 E.1684
G1 X118.293 Y103.26 E.02708
G1 X117.995 Y103.762 E.01976
;WIDTH:0.639748
G1 X117.995 Y107.733 E.19707
;WIPE_START
G1 F8640
G1 X117.995 Y104.268 E-.8
;WIPE_END
G1 Z.8 F10800
G1 X80.402 Y108.947
G1 Z.4
G1 E.8 F2100
M204 S800
;TYPE:Perimeter
;WIDTH:0.449999
G1 F942
G1 X77.973 Y108.947 E.08222
G1 X77.973 Y102.547 E.21663
M73 Q9 S4
G1 X80.402 Y102.547 E.08222
M73 P9 R4
G1 X80.402 Y108.887 E.2146
M204 S1000
G1 X80.809 Y109.354 F10800
M204 S800
;TYPE:External perimeter
G1 F942
G1 X77.566 Y109.354 E.10977
G1 X77.566 Y108.679 E.02285
G1 X77.566 Y102.815 E.19849
G1 X77.566 Y102.14 E.02285
G1 X80.809 Y102.14 E.10977
G1 X80.809 Y102.815 E.02285
G1 X80.809 Y108.679 E.19849
G1 X80.809 Y109.294 E.02082
M204 S1000
;WIPE_START
G1 F8640
G1 X80.809 Y109.354 E-.01385
G1 X77.566 Y109.354 E-.74882
G1 X77.566 Y109.192 E-.03733
;WIPE_END
G1 Z.8 F10800
G1 X79.893 Y102.853
G1 Z.4
G1 E.8 F2100
;TYPE:Solid infill
G1 F942
G1 X78.278 Y102.853 E.05467
G1 X78.278 Y108.642 E.19595
G1 X80.096 Y108.642 E.06154
M73 P10 R4
M73 Q10 S4
G1 X80.096 Y102.853 E.19595
G1 X79.689 Y103.26 E.01948
G1 X79.689 Y108.235 E.1684
G1 X78.685 Y108.235 E.03398
G1 X78.685 Y103.26 E.1684
G1 X79.486 Y103.26 E.02711
G1 X79.187 Y103.762 E.01978
;WIDTH:0.63975
G1 X79.187 Y107.733 E.19707
M106 S170.85
;LAYER_CHANGE
;Z:0.6
;HEIGHT:0.2
;BEFORE_LAYER_CHANGE
G92 E0.0
;0.6


;WIPE_START
G1 F8640
G1 X79.187 Y104.268 E-.8
;WIPE_END
G1 Z.6 F10800
;AFTER_LAYER_CHANGE
;0.6
G1 Z1
G1 X116.78 Y108.947
G1 Z.6
G1 E.8 F2100
M204 S800
;TYPE:Perimeter
;WIDTH:0.449999
G1 F914
G1 X116.78 Y102.547 E.21663
G1 X119.209 Y102.547 E.08222
M73 P11 R4
M73 Q11 S4
G1 X119.209 Y108.947 E.21663
G1 X116.84 Y108.947 E.08019
M204 S1000
G1 X116.373 Y109.354 F10800
M204 S800
;TYPE:External perimeter
G1 F914
G1 X116.373 Y102.14 E.24418
G1 X119.616 Y102.14 E.10977
G1 X119.616 Y109.354 E.24418
G1 X116.433 Y109.354 E.10774
M204 S1000
G1 X117.086 Y108.642 F10800
;TYPE:Solid infill
G1 F914
G1 X117.086 Y102.853 E.19595
G1 X118.904 Y102.853 E.06154
G1 X118.904 Y108.642 E.19595
G1 X117.289 Y108.642 E.05467
M73 P12 R4
M73 Q12 S4
G1 X117.493 Y108.235 E.01541
G1 X117.493 Y103.26 E.1684
G1 X118.497 Y103.26 E.03398
G1 X118.497 Y108.235 E.1684
G1 X117.696 Y108.235 E.02711
G1 X117.995 Y107.733 E.01978
;WIDTH:0.63975
G1 X117.995 Y103.762 E.19707
;WIPE_START
G1 F8640
G1 X117.995 Y107.227 E-.8
;WIPE_END
G1 Z1 F10800
G1 X80.402 Y102.547
G1 Z.6
G1 E.8 F2100
M204 S800
;TYPE:Perimeter
;WIDTH:0.449999
G1 F914
G1 X80.402 Y108.947 E.21663
G1 X77.973 Y108.947 E.08222
G1 X77.973 Y102.547 E.21663
G1 X80.342 Y102.547 E.08019
M73 P13 R4
M73 Q13 S4
M204 S1000
G1 X80.809 Y102.14 F10800
M204 S800
;TYPE:External perimeter
G1 F914
G1 X80.809 Y109.354 E.24418
G1 X77.566 Y109.354 E.10977
G1 X77.566 Y102.14 E.24418
G1 X80.749 Y102.14 E.10774
M204 S1000
;WIPE_START
G1 F8640
G1 X80.809 Y102.14 E-.01385
G1 X80.809 Y105.545 E-.78615
;WIPE_END
G1 Z1 F10800
G1 X78.278 Y108.642
G1 Z.6
G1 E.8 F2100
;TYPE:Solid infill
G1 F914
G1 X78.278 Y102.853 E.19595
G1 X80.096 Y102.853 E.06154
G1 X80.096 Y108.642 E.19595
G1 X78.482 Y108.642 E.05463
M73 P14 R4
M73 Q14 S4
G1 X78.685 Y108.235 E.01539
G1 X78.685 Y103.26 E.1684
G1 X79.689 Y103.26 E.03398
G1 X79.689 Y108.235 E.1684
G1 X78.889 Y108.235 E.02708
G1 X79.187 Y107.733 E.01976
;WIDTH:0.63975
G1 X79.187 Y103.762 E.19707
M106 S255
;LAYER_CHANGE
;Z:0.8
;HEIGHT:0.2
;BEFORE_LAYER_CHANGE
G92 E0.0
;0.8


;WIPE_START
G1 F8640
G1 X79.187 Y107.227 E-.8
;WIPE_END
G1 Z.8 F10800
;AFTER_LAYER_CHANGE
;0.8
G1 Z1.2
G1 X116.78 Y102.547
G1 Z.8
G1 E.8 F2100
M204 S800
;TYPE:Perimeter
;WIDTH:0.449999
G1 F907
G1 X119.209 Y102.547 E.08222
G1 X119.209 Y108.947 E.21663
G1 X116.78 Y108.947 E.08222
G1 X116.78 Y102.607 E.2146
M204 S1000
G1 X116.373 Y102.14 F10800
M73 P15 R4
M73 Q15 S4
M204 S800
;TYPE:External perimeter
G1 F907
G1 X119.616 Y102.14 E.10977
G1 X119.616 Y109.354 E.24418
G1 X116.373 Y109.354 E.10977
G1 X116.373 Y102.2 E.24215
M204 S1000
;WIPE_START
G1 F8640
G1 X116.373 Y102.14 E-.01385
G1 X119.616 Y102.14 E-.74882
G1 X119.616 Y102.302 E-.03733
;WIPE_END
G1 Z1.2 F10800
G1 X118.7 Y102.853
G1 Z.8
G1 E.8 F2100
;TYPE:Solid infill
G1 F907
G1 X117.086 Y102.853 E.05463
G1 X117.086 Y105.228 E.08039
G1 X117.064 Y105.846 E.02093
;WIDTH:0.447703
G1 X117.084 Y106.267 E.01419
;WIDTH:0.449999
G1 X117.086 Y108.642 E.08039
G1 X118.904 Y108.642 E.06154
G1 X118.904 Y106.827 E.06144
G1 X117.51 Y106.021 E.0545
M73 P16 R4
;WIDTH:0.447703
G1 X117.429 Y105.846 E.00649
;WIDTH:0.407607
G1 X117.429 Y105.649 E.00597
;WIDTH:0.449999
G1 X117.51 Y105.472 E.00659
G1 X118.904 Y104.668 E.05447
G1 X118.904 Y102.853 E.06144
M73 Q16 S4
G1 X118.497 Y103.26 E.01948
G1 X118.497 Y104.433 E.0397
G1 X117.493 Y105.012 E.03923
G1 X117.493 Y103.26 E.0593
G1 X118.293 Y103.26 E.02708
G1 X117.995 Y103.762 E.01976
;WIDTH:0.63973
G1 X117.995 Y104.143 E.01891
;WIPE_START
G1 F8640
G1 X117.995 Y103.762 E-.08797
G1 X118.293 Y103.26 E-.1348
G1 X117.493 Y103.26 E-.18472
G1 X117.493 Y104.96 E-.39251
;WIPE_END
G1 Z1.2 F10800
G1 X117.493 Y106.483
G1 Z.8
G1 E.8 F2100
;WIDTH:0.449999
G1 F907
G1 X118.497 Y107.062 E.03923
G1 X118.497 Y108.235 E.0397
G1 X117.493 Y108.235 E.03398
G1 X117.493 Y106.686 E.05243
G1 X117.995 Y107.352 F10800
;WIDTH:0.639726
G1 F907
G1 X117.995 Y107.733 E.01891
;WIPE_START
G1 F8640
G1 X117.995 Y107.352 E-.08797
;WIPE_END
G1 E-.71203 F2100
G1 Z1.2 F10800
G1 X80.402 Y108.947
G1 Z.8
G1 E.8 F2100
M204 S800
;TYPE:Perimeter
;WIDTH:0.449999
G1 F907
G1 X77.973 Y108.947 E.08222
G1 X77.973 Y102.547 E.21663
G1 X80.402 Y102.547 E.08222
G1 X80.402 Y108.887 E.2146
M73 P17 R4
M204 S1000
G1 X80.809 Y109.354 F10800
M73 Q17 S4
M204 S800
;TYPE:External perimeter
G1 F907
G1 X77.566 Y109.354 E.10977
G1 X77.566 Y102.14 E.24418
G1 X80.809 Y102.14 E.10977
G1 X80.809 Y109.294 E.24215
M204 S1000
;WIPE_START
G1 F8640
G1 X80.809 Y109.354 E-.01385
G1 X77.566 Y109.354 E-.74882
G1 X77.566 Y109.192 E-.03733
;WIPE_END
G1 Z1.2 F10800
G1 X78.278 Y102.853
G1 Z.8
G1 E.8 F2100
;TYPE:Solid infill
G1 F907
G1 X80.096 Y102.853 E.06154
G1 X80.098 Y105.228 E.08039
;WIDTH:0.447703
G1 X80.118 Y105.649 E.01419
;WIDTH:0.449999
G1 X80.096 Y106.267 E.02093
G1 X80.096 Y108.642 E.08039
G1 X78.278 Y108.642 E.06154
G1 X78.278 Y106.827 E.06144
M73 P18 R4
G1 X79.672 Y106.022 E.05449
G1 X79.753 Y105.846 E.00656
M73 Q18 S4
;WIDTH:0.407607
G1 X79.753 Y105.649 E.00597
;WIDTH:0.447703
G1 X79.672 Y105.473 E.00652
;WIDTH:0.449999
G1 X78.278 Y104.668 E.05449
G1 X78.278 Y103.056 E.05456
G1 X78.685 Y103.26 E.01541
G1 X79.689 Y103.26 E.03398
G1 X79.689 Y105.012 E.0593
G1 X78.685 Y104.433 E.03923
G1 X78.685 Y103.463 E.03283
G1 X79.187 Y103.762 E.01978
;WIDTH:0.63973
G1 X79.187 Y104.143 E.01891
;WIPE_START
G1 F8640
G1 X79.187 Y103.762 E-.08797
G1 X78.685 Y103.463 E-.13492
G1 X78.685 Y104.433 E-.22398
G1 X79.689 Y105.012 E-.26761
G1 X79.689 Y104.642 E-.08552
;WIPE_END
G1 Z1.2 F10800
G1 X79.689 Y106.483
G1 Z.8
G1 E.8 F2100
;WIDTH:0.449999
G1 F907
G1 X79.689 Y108.235 E.0593
G1 X78.685 Y108.235 E.03398
G1 X78.685 Y107.062 E.0397
G1 X79.513 Y106.584 E.03236
G1 X79.187 Y107.352 F10800
;WIDTH:0.639728
G1 F907
G1 X79.187 Y107.733 E.01891
;LAYER_CHANGE
;Z:1
;HEIGHT:0.2
;BEFORE_LAYER_CHANGE
G92 E0.0
;1


;WIPE_START
G1 F8640
G1 X79.187 Y107.352 E-.08797
;WIPE_END
G1 E-.71203 F2100
G1 Z1 F10800
;AFTER_LAYER_CHANGE
;1
G1 Z1.4
G1 X116.78 Y108.947
G1 Z1
G1 E.8 F2100
M73 P18 R3
M204 S800
;TYPE:Perimeter
;WIDTH:0.449999
G1 F900
G1 X116.78 Y102.547 E.21663
G1 X119.209 Y102.547 E.08222
M73 P19 R3
G1 X119.209 Y108.947 E.21663
G1 X116.84 Y108.947 E.08019
M73 Q19 S4
M204 S1000
G1 X116.373 Y109.354 F10800
M204 S800
;TYPE:External perimeter
G1 F900
G1 X116.373 Y102.14 E.24418
G1 X119.616 Y102.14 E.10977
G1 X119.616 Y109.354 E.24418
G1 X116.433 Y109.354 E.10774
M204 S1000
;WIPE_START
G1 F8640
G1 X116.373 Y109.354 E-.01385
G1 X116.373 Y105.949 E-.78615
;WIPE_END
G1 Z1.4 F10800
G1 X118.225 Y102.67
G1 Z1
G1 E.8 F2100
;TYPE:Top solid infill
;WIDTH:0.468273
G1 F900
G1 X118.904 Y103.348 E.03394
G1 X118.904 Y103.722 E.01323
G1 X118.759 Y103.805 E.00591
G1 X117.807 Y102.853 E.04762
G1 X117.205 Y102.853 E.02129
G1 X118.904 Y104.551 E.08496
G1 X118.904 Y104.668 E.00414
M73 P20 R3
G1 X118.596 Y104.845 E.01256
G1 X117.086 Y103.335 E.07553
G1 X117.086 Y103.936 E.02126
G1 X118.215 Y105.065 E.05647
G1 X117.833 Y105.286 E.01561
M73 Q20 S4
G1 X117.086 Y104.538 E.03739
G1 X117.086 Y105.139 E.02126
G1 X117.452 Y105.506 E.01833
G1 X117.408 Y105.531 E.00179
G1 X117.408 Y105.964 E.01531
G1 X118.596 Y106.65 E.04852
G1 X118.904 Y106.957 E.01538
G1 X118.904 Y107.477 E.01839
G1 X118.851 Y107.507 E.00215
G1 X117.086 Y105.741 E.08831
G1 X117.086 Y106.342 E.02126
G1 X118.904 Y108.16 E.09093
G1 X118.904 Y108.642 E.01705
G1 X118.784 Y108.642 E.00424
G1 X117.086 Y106.944 E.08493
G1 X117.086 Y107.545 E.02126
G1 X118.182 Y108.642 E.05485
G1 X117.581 Y108.642 E.02126
G1 X116.902 Y107.964 E.03394
;WIPE_START
G1 F8640
G1 X117.581 Y108.642 E-.22156
G1 X118.182 Y108.642 E-.13877
G1 X117.086 Y107.545 E-.35806
G1 X117.086 Y107.191 E-.08161
;WIPE_END
G1 Z1.4 F10800
G1 X80.402 Y108.947
G1 Z1
G1 E.8 F2100
M204 S800
;TYPE:Perimeter
;WIDTH:0.449999
G1 F900
