; generated by PrusaSlicer 2.9.2 on 2025-11-04 at 13:26:58 UTC


;
;
; 

; external perimeters extrusion width = 0.45mm
; perimeters extrusion width = 0.45mm
; infill extrusion width = 0.45mm
; solid infill extrusion width = 0.45mm
; top infill extrusion width = 0.45mm
; support material extrusion width = 0.35mm
; first layer extrusion width = 0.45mm

M73 P0 R13
M73 Q0 S13
M201 X1000 Y1000 Z200 E5000 ; sets maximum accelerations, mm/sec^2
M203 X200 Y200 Z12 E120 ; sets maximum feedrates, mm / sec
M204 S1250 T1250 ; sets acceleration (S) and retract acceleration (R), mm/sec^2
M205 X8.00 Y8.00 Z0.40 E4.50 ; sets the jerk limits, mm/sec
M205 S0 T0 ; sets the minimum extruding and travel feed rate, mm/sec

; printing object UC_strengthened id:0 copy 0
; stop printing object UC_strengthened id:0 copy 0

;TYPE:Custom
M862.3 P "MK3S" ; printer model check
M862.1 P0.4 ; nozzle diameter check
M115 U3.13.2 ; tell printer latest fw version
G90 ; use absolute coordinates
M83 ; extruder relative mode
M104 S200 ; set extruder temp
M140 S55 ; set bed temp
M190 S55 ; wait for bed temp
M109 S200 ; wait for extruder temp
G28 W ; home all without mesh bed level
G80 X79.5754 Y60.6959 W44.2817 H44.2817 ; mesh bed levelling

G1 Z0.2 F720
G1 Y-3 F1000 ; go outside print area
G92 E0
G1 X60 E9 F1000 ; intro line
G1 X100 E12.5 F1000 ; intro line

G92 E0
M221 S95

; Don't change E values below. Excessive value can damage the printer.
M907 E430 ; set extruder motor current
G21 ; set units to millimeters
G90 ; use absolute coordinates
M83 ; use relative distances for extrusion
M900 K0.05 ; Filament gcode LA 1.5
M900 K30 ; Filament gcode LA 1.0

M107
;LAYER_CHANGE
;Z:0.2
;HEIGHT:0.2
G1 E-.8 F2100
G1 Z.6 F10800
G1 X80.544 Y64.962
G1 Z.2
G1 E.8 F2100
M204 S1000
;TYPE:Skirt/Brim
;WIDTH:0.45
G1 F2400
G1 X83.842 Y61.664 E.15787
G1 X85.688 Y60.899 E.06764
G1 X117.745 Y60.899 E1.08509
G1 X119.591 Y61.664 E.06764
M73 P1 R13
M73 Q1 S13
G1 X122.889 Y64.962 E.15787
G1 X123.654 Y66.808 E.06764
G1 X123.654 Y98.865 E1.08509
G1 X122.889 Y100.711 E.06764
M73 P1 R12
G1 X119.591 Y104.009 E.15787
G1 X117.745 Y104.774 E.06764
G1 X85.688 Y104.774 E1.08509
G1 X83.842 Y104.009 E.06764
G1 X80.544 Y100.711 E.15787
G1 X79.779 Y98.865 E.06764
G1 X79.779 Y66.808 E1.08509
G1 X80.521 Y65.018 E.06559
G1 X80.831 Y65.25 F10800
G1 F2400
G1 X84.129 Y61.952 E.15787
G1 X85.688 Y61.307 E.05711
G1 X117.745 Y61.307 E1.08509
G1 X119.303 Y61.952 E.05708
G1 X122.601 Y65.25 E.15787
G1 X123.246 Y66.808 E.05708
G1 X123.246 Y98.865 E1.08509
G1 X122.601 Y100.424 E.05711
G1 X119.303 Y103.722 E.15787
G1 X117.745 Y104.367 E.05708
G1 X85.688 Y104.367 E1.08509
G1 X84.129 Y103.722 E.05711
G1 X80.831 Y100.424 E.15787
G1 X80.186 Y98.865 E.05711
G1 X80.186 Y66.808 E1.08509
G1 X80.808 Y65.305 E.05506
;WIPE_START
G1 F8640
G1 X80.831 Y65.25 E-.01377
G1 X83.239 Y62.842 E-.78623
;WIPE_END
G1 Z.6 F10800
; printing object UC_strengthened id:0 copy 0
G1 X85.749 Y98.804
G1 Z.2
M73 P2 R12
M73 Q2 S13
G1 E.8 F2100
;TYPE:Perimeter
;WIDTH:0.449999
G1 F2400
G1 X85.258 Y100.557 E.06162
G1 X83.996 Y99.295 E.06041
G1 X85.691 Y98.82 E.05958
;WIPE_START
G1 F8640
G1 X85.749 Y98.804 E-.01389
G1 X85.258 Y100.557 E-.42035
G1 X84.138 Y99.437 E-.36576
;WIPE_END
G1 Z.6 F10800
G1 X85.749 Y66.869
G1 Z.2
G1 E.8 F2100
G1 F2400
G1 X83.996 Y66.378 E.06162
G1 X85.257 Y65.117 E.06036
G1 X85.733 Y66.812 E.05959
;WIPE_START
G1 F8640
G1 X85.749 Y66.869 E-.01367
G1 X83.996 Y66.378 E-.42035
G1 X85.117 Y65.257 E-.36598
;WIPE_END
G1 Z.6 F10800
G1 X117.684 Y66.869
G1 Z.2
G1 E.8 F2100
G1 F2400
G1 X118.175 Y65.117 E.06159
G1 X119.436 Y66.378 E.06036
G1 X117.741 Y66.853 E.05958
;WIPE_START
G1 F8640
G1 X117.684 Y66.869 E-.01367
G1 X118.175 Y65.117 E-.42013
G1 X119.297 Y66.238 E-.3662
;WIPE_END
G1 Z.6 F10800
G1 X117.684 Y98.804
G1 Z.2
G1 E.8 F2100
G1 F2400
G1 X118.575 Y99.064 E.03142
G1 X119.436 Y99.295 E.03017
G1 X118.175 Y100.557 E.06039
G1 X117.7 Y98.862 E.05958
;WIPE_START
G1 F8640
G1 X117.684 Y98.804 E-.01389
G1 X118.575 Y99.064 E-.21431
G1 X119.436 Y99.295 E-.20584
G1 X118.316 Y100.416 E-.36596
;WIPE_END
G1 Z.6 F10800
G1 X102.778 Y83.893
G1 Z.2
M73 Q2 S12
G1 E.8 F2100
G1 F2400
G1 X102.264 Y83.738 E.01817
G1 X101.716 Y83.682 E.01865
G1 X101.206 Y83.735 E.01736
G1 X100.66 Y83.898 E.01929
G1 X100.815 Y83.385 E.01814
G1 X100.871 Y82.837 E.01865
G1 X100.818 Y82.327 E.01736
G1 X100.655 Y81.781 E.01929
G1 X101.168 Y81.935 E.01813
G1 X101.716 Y81.992 E.01865
G1 X102.226 Y81.939 E.01736
G1 X102.772 Y81.775 E.0193
G1 X102.618 Y82.289 E.01816
G1 X102.561 Y82.837 E.01865
G1 X102.614 Y83.347 E.01736
G1 X102.761 Y83.835 E.01725
G1 X103.139 Y83.66 F10800
;TYPE:External perimeter
G1 F2400
G1 X103.259 Y83.973 E.01135
;WIDTH:0.453618
G1 X103.566 Y84.394 E.01779
G1 X117.453 Y98.285 E.67077
;WIDTH:0.450831
G1 X117.539 Y98.337 E.00341
G1 X118.538 Y98.632 E.03533
;WIDTH:0.449999
G1 X118.681 Y98.671 E.00502
G1 X120.222 Y99.085 E.05401
G1 X117.965 Y101.343 E.10807
G1 X117.512 Y99.658 E.05906
;WIDTH:0.450831
G1 X117.217 Y98.659 E.03533
G1 X117.165 Y98.573 E.00341
;WIDTH:0.453618
G1 X103.276 Y84.684 E.67077
;WIDTH:0.456066
G1 X103.156 Y84.585 E.00534
G1 X102.663 Y84.284 E.01984
;WIDTH:0.449999
G1 X102.22 Y84.143 E.01574
G1 X101.644 Y84.093 E.01957
G1 X101.125 Y84.17 E.01776
G1 X100.58 Y84.38 E.01977
;WIDTH:0.453618
G1 X100.159 Y84.687 E.01779
G1 X86.268 Y98.573 E.67074
;WIDTH:0.450831
G1 X86.216 Y98.659 E.00341
G1 X85.92 Y99.658 E.03534
;WIDTH:0.449999
G1 X85.468 Y101.343 E.05905
G1 X83.21 Y99.085 E.10809
G1 X84.895 Y98.632 E.05906
;WIDTH:0.450831
G1 X85.894 Y98.337 E.03533
G1 X85.98 Y98.285 E.00341
;WIDTH:0.453618
G1 X99.869 Y84.396 E.67077
;WIDTH:0.456066
G1 X99.968 Y84.276 E.00534
G1 X100.269 Y83.784 E.01981
;WIDTH:0.449999
G1 X100.41 Y83.34 E.01577
G1 X100.46 Y82.764 E.01957
G1 X100.383 Y82.245 E.01776
G1 X100.173 Y81.7 E.01977
;WIDTH:0.453618
G1 X99.866 Y81.28 E.01777
G1 X85.98 Y67.388 E.67077
;WIDTH:0.449998
G1 X85.893 Y67.337 E.00341
G1 X84.895 Y67.041 E.03524
G1 X83.21 Y66.588 E.05906
G1 X85.468 Y64.331 E.10806
G1 X85.912 Y65.985 E.05797
G1 X86.216 Y67.014 E.03632
G1 X86.268 Y67.1 E.0034
;WIDTH:0.453618
G1 X100.157 Y80.989 E.67077
;WIDTH:0.458257
G1 X100.276 Y81.09 E.00539
M73 P3 R12
M73 Q3 S12
G1 X100.769 Y81.389 E.01991
;WIDTH:0.449999
G1 X101.213 Y81.531 E.01578
G1 X101.789 Y81.581 E.01957
G1 X102.307 Y81.503 E.01773
G1 X102.853 Y81.294 E.01979
;WIDTH:0.453619
G1 X103.273 Y80.987 E.01777
G1 X117.165 Y67.1 E.67079
;WIDTH:0.449998
G1 X117.216 Y67.014 E.00338
G1 X117.512 Y66.015 E.03527
G1 X117.965 Y64.331 E.05903
G1 X120.222 Y66.588 E.10804
G1 X118.538 Y67.041 E.05903
G1 X117.539 Y67.337 E.03527
G1 X117.453 Y67.388 E.00338
;WIDTH:0.453619
G1 X103.564 Y81.277 E.67077
;WIDTH:0.458257
G1 X103.463 Y81.396 E.00539
G1 X103.164 Y81.89 E.01994
;WIDTH:0.449999
G1 X103.022 Y82.333 E.01575
G1 X102.972 Y82.909 E.01957
G1 X103.05 Y83.428 E.01776
G1 X103.117 Y83.604 E.00637
G1 X102.443 Y82.896 F10800
;TYPE:Solid infill
;WIDTH:0.519974
G1 F2400
G1 X101.837 Y82.29 E.034
G1 X101.714 Y82.298 E.00489
G1 X101.108 Y82.236 E.02416
G1 X102.308 Y83.436 E.06732
G1 X101.718 Y83.376 E.02352
G1 X101.581 Y83.384 E.00544
G1 X100.991 Y82.794 E.0331
;WIPE_START
G1 F8640
G1 X101.581 Y83.384 E-.19266
G1 X101.718 Y83.376 E-.03169
G1 X102.308 Y83.436 E-.13694
G1 X101.108 Y82.236 E-.39186
G1 X101.31 Y82.256 E-.04685
;WIPE_END
G1 Z.6 F10800
G1 X85.566 Y66.685
G1 Z.2
G1 E.8 F2100
;WIDTH:0.519257
G1 F2400
G1 X84.714 Y65.833 E.04772
;WIPE_START
G1 F8640
G1 X85.566 Y66.685 E-.27822
;WIPE_END
G1 E-.52178 F2100
G1 Z.6 F10800
G1 X85.378 Y99.637
G1 Z.2
G1 E.8 F2100
;WIDTH:0.465779
G1 F2400
G1 X85.061 Y99.319 E.01579
G1 X84.593 Y99.449 E.01708
G1 X85.252 Y100.108 E.03277
;WIPE_START
G1 F8640
G1 X84.593 Y99.449 E-.21519
G1 X85.061 Y99.319 E-.11215
G1 X85.378 Y99.637 E-.10368
;WIPE_END
G1 E-.36898 F2100
G1 Z.6 F10800
G1 X118.72 Y99.839
G1 Z.2
G1 E.8 F2100
;WIDTH:0.51937
G1 F2400
G1 X117.868 Y98.987 E.04773
;WIPE_START
G1 F8640
G1 X118.72 Y99.839 E-.27822
;WIPE_END
G1 E-.52178 F2100
G1 Z.6 F10800
G1 X118.988 Y66.373
G1 Z.2
G1 E.8 F2100
;WIDTH:0.464785
G1 F2400
G1 X118.329 Y65.713 E.03272
G1 X118.199 Y66.18 E.017
G1 X118.522 Y66.503 E.01602
M106 S84.15
;LAYER_CHANGE
;Z:0.4
;HEIGHT:0.2
;BEFORE_LAYER_CHANGE
G92 E0.0
;0.4


;WIPE_START
G1 F8640
G1 X118.199 Y66.18 E-.10547
G1 X118.329 Y65.713 E-.11193
G1 X118.988 Y66.373 E-.21536
;WIPE_END
G1 E-.36724 F2100
G1 Z.4 F10800
;AFTER_LAYER_CHANGE
;0.4
G1 Z.8
G1 X86.12 Y98.433
G1 Z.4
G1 E.8 F2100
M204 S800
;TYPE:Perimeter
;WIDTH:0.432585
G1 F2121.779
G1 X85.984 Y98.65 E.0083
;WIDTH:0.449999
G1 F2122.659
G1 X85.681 Y99.747 E.03852
G1 F2123.248
G1 X85.36 Y100.942 E.04188
G1 F2113.605
G1 X83.611 Y99.193 E.08372
G1 F2122.337
G1 X84.806 Y98.872 E.04188
G1 F2121.746
G1 X85.903 Y98.569 E.03852
;WIDTH:0.432585
G1 F2120.862
G1 X86.069 Y98.465 E.00635
M204 S1000
;WIPE_START
G1 F8640
G1 X86.12 Y98.433 E-.0139
G1 X85.984 Y98.65 E-.05913
G1 X85.681 Y99.747 E-.26279
G1 X85.36 Y100.942 E-.28571
G1 X84.813 Y100.395 E-.17847
;WIPE_END
G1 Z.8 F10800
G1 X100.004 Y84.549
G1 Z.4
G1 E.8 F2100
M204 S800
;WIDTH:0.403352
G1 F2400
G1 X99.941 Y84.612 E.00267
;WIDTH:0.38965
G1 X86.156 Y98.397 E.56205
;WIDTH:0.39026
G1 F2131.096
G1 X86.12 Y98.433 E.00147
M204 S1000
;WIPE_START
G1 F8640
G1 X86.156 Y98.397 E-.01176
G1 X88.57 Y95.983 E-.78824
;WIPE_END
G1 Z.8 F10800
G1 X83.611 Y66.481
G1 Z.4
M73 Q4 S12
G1 E.8 F2100
M204 S800
;WIDTH:0.449999
G1 F2113.604
G1 X85.36 Y64.731 E.08375
G1 F2121.639
M73 P4 R12
G1 X85.681 Y65.926 E.04188
G1 X85.98 Y67.024 E.03852
;WIDTH:0.439424
G1 F2119.56
G1 X86.068 Y67.15 E.00507
;WIDTH:0.412632
G1 F2124.052
G1 X86.156 Y67.276 E.00472
G1 F2125.645
G1 X86.03 Y67.189 E.00471
;WIDTH:0.439424
G1 F2121.179
G1 X85.903 Y67.101 E.00509
;WIDTH:0.449999
G1 F2122.89
G1 X84.806 Y66.801 E.0385
G1 F2123.247
G1 X83.669 Y66.496 E.03985
M204 S1000
;WIPE_START
G1 F8640
G1 X83.611 Y66.481 E-.01383
G1 X85.36 Y64.731 E-.57129
G1 X85.601 Y65.63 E-.21488
;WIPE_END
G1 Z.8 F10800
G1 X99.976 Y81.097
G1 Z.4
G1 E.8 F2100
M204 S800
;WIDTH:0.394084
G1 F2400
G1 X99.941 Y81.061 E.00147
;WIDTH:0.38965
G1 X86.156 Y67.276 E.56205
M204 S1000
;WIPE_START
G1 F8640
G1 X88.606 Y69.726 E-.8
;WIPE_END
G1 Z.8 F10800
G1 X118.072 Y64.731
G1 Z.4
G1 E.8 F2100
M204 S800
;WIDTH:0.449999
G1 F2113.602
G1 X119.822 Y66.481 E.08377
G1 F2122.338
G1 X118.627 Y66.801 E.04187
G1 F2121.979
G1 X117.529 Y67.101 E.03853
;WIDTH:0.439424
G1 F2120.263
G1 X117.403 Y67.189 E.00507
;WIDTH:0.412632
G1 F2124.743
G1 X117.277 Y67.276 E.00471
G1 F2125.646
G1 X117.364 Y67.15 E.00471
;WIDTH:0.439424
G1 F2121.18
G1 X117.452 Y67.024 E.00507
;WIDTH:0.449999
G1 F2122.89
G1 X117.752 Y65.926 E.03853
G1 F2123.248
G1 X118.057 Y64.789 E.03985
M204 S1000
;WIPE_START
G1 F8640
G1 X118.072 Y64.731 E-.01383
G1 X119.822 Y66.481 E-.57146
G1 X118.924 Y66.722 E-.21471
;WIPE_END
G1 Z.8 F10800
G1 X103.456 Y81.097
G1 Z.4
G1 E.8 F2100
M204 S800
;WIDTH:0.394084
G1 F2400
G1 X103.492 Y81.061 E.00149
;WIDTH:0.38965
G1 X117.277 Y67.276 E.56205
M204 S1000
;WIPE_START
G1 F8640
G1 X114.827 Y69.726 E-.8
;WIPE_END
G1 Z.8 F10800
G1 X103.41 Y81.143
G1 Z.4
G1 E.8 F2100
M204 S800
;WIDTH:0.449999
G1 F2400
G1 X103.083 Y81.6 E.01902
G1 X102.916 Y81.97 E.01374
G1 X102.783 Y82.527 E.01938
G1 X102.769 Y83.013 E.01646
G1 X102.874 Y83.599 E.02015
G1 X103.084 Y84.093 E.01817
G1 X103.429 Y84.549 E.01935
;WIDTH:0.406441
G1 X103.41 Y84.531 E.00079
;WIDTH:0.449999
G1 X102.953 Y84.203 E.01904
G1 X102.583 Y84.036 E.01374
G1 X102.026 Y83.903 E.01938
G1 X101.54 Y83.889 E.01646
G1 X100.954 Y83.995 E.02016
G1 X100.459 Y84.204 E.01819
G1 X100.022 Y84.53 E.01845
G1 X100.35 Y84.073 E.01904
G1 X100.517 Y83.703 E.01374
G1 X100.65 Y83.147 E.01935
G1 X100.663 Y82.656 E.01663
G1 X100.558 Y82.075 E.01998
G1 X100.349 Y81.58 E.01819
G1 X100.023 Y81.143 E.01845
G1 X100.48 Y81.47 E.01902
G1 X100.85 Y81.637 E.01374
G1 X101.403 Y81.769 E.01924
G1 X101.893 Y81.784 E.01659
G1 X102.478 Y81.679 E.02012
G1 X102.973 Y81.469 E.0182
G1 X103.362 Y81.179 E.01642
M204 S1000
;WIPE_START
G1 F8640
G1 X103.41 Y81.143 E-.01385
G1 X103.083 Y81.6 E-.12975
G1 X102.916 Y81.97 E-.09373
G1 X102.783 Y82.527 E-.13223
G1 X102.769 Y83.013 E-.11227
G1 X102.874 Y83.599 E-.13746
G1 X103.084 Y84.093 E-.12394
G1 X103.232 Y84.289 E-.05677
;WIPE_END
G1 Z.8 F10800
G1 X117.431 Y98.507
G1 Z.4
G1 E.8 F2100
M204 S800
;WIDTH:0.432585
G1 F2120.863
G1 X117.53 Y98.569 E.00378
;WIDTH:0.449999
G1 F2122.66
G1 X118.627 Y98.872 E.03852
G1 F2123.249
G1 X119.822 Y99.193 E.04188
G1 F2109.474
G1 X118.072 Y100.942 E.08375
G1 F2122.337
G1 X117.752 Y99.747 E.04187
G1 F2121.746
G1 X117.449 Y98.65 E.03852
;WIDTH:0.432585
G1 F2120.863
G1 X117.312 Y98.433 E.00831
G1 X117.38 Y98.475 E.00259
M204 S1000
;WIPE_START
G1 F8640
G1 X117.431 Y98.507 E-.0139
G1 X117.53 Y98.569 E-.02697
G1 X118.627 Y98.872 E-.26279
G1 X119.822 Y99.193 E-.28571
G1 X119.177 Y99.838 E-.21063
;WIPE_END
G1 Z.8 F10800
G1 X103.429 Y84.549
G1 Z.4
G1 E.8 F2100
M204 S800
;WIDTH:0.403354
G1 F2400
G1 X117.312 Y98.433 E.58844
M204 S1000
G1 X117.587 Y98.158 F10800
M204 S800
;TYPE:External perimeter
;WIDTH:0.449999
G1 F2073.248
G1 X117.633 Y98.185 E.00181
G1 F2065.46
G1 X120.608 Y98.982 E.10425
G1 F2048.81
G1 X117.861 Y101.729 E.1315
G1 F2064.358
G1 X117.064 Y98.754 E.10425
G1 F2072.172
G1 X117.011 Y98.662 E.00359
G1 F2126.799
G1 X116.534 Y98.185 E.02283
G1 F2385.285
G1 X103.194 Y84.854 E.63836
G1 F2327.304
G1 X102.727 Y84.542 E.01901
G1 X102.275 Y84.361 E.01648
G1 F2339.107
G1 X101.716 Y84.296 E.01905
G1 F2328.351
G1 X101.182 Y84.363 E.01822
G1 X100.623 Y84.577 E.02026
G1 F2394.792
G1 X100.207 Y84.879 E.0174
G1 F2385.295
G1 X86.898 Y98.185 E.63702
G1 F2127.695
M73 P5 R12
M73 Q5 S12
G1 X86.421 Y98.662 E.02283
G1 F2073.247
G1 X86.368 Y98.754 E.00359
G1 F2065.459
G1 X85.571 Y101.729 E.10425
G1 F2053.803
G1 X82.824 Y98.982 E.1315
G1 F2064.357
G1 X85.799 Y98.185 E.10425
G1 F2072.171
G1 X85.891 Y98.132 E.00359
G1 F2126.798
G1 X86.368 Y97.655 E.02283
G1 F2385.285
G1 X99.699 Y84.315 E.63836
G1 F2327.304
G1 X100.011 Y83.848 E.01901
G1 X100.192 Y83.395 E.01651
G1 F2337.754
G1 X100.257 Y82.838 E.01898
G1 F2328.776
G1 X100.19 Y82.303 E.01825
G1 X99.976 Y81.744 E.02026
G1 F2394.792
G1 X99.674 Y81.328 E.0174
G1 F2385.296
G1 X86.368 Y68.019 E.63702
G1 F2127.694
G1 X85.891 Y67.542 E.02283
G1 F2073.246
G1 X85.799 Y67.489 E.00359
G1 F2065.458
G1 X82.824 Y66.692 E.10425
G1 F2053.802
G1 X85.571 Y63.945 E.1315
G1 F2063.515
G1 X86.368 Y66.92 E.10425
G1 F2071.348
G1 X86.421 Y67.011 E.00356
G1 F2126.112
G1 X86.898 Y67.488 E.02283
G1 F2385.285
G1 X100.238 Y80.82 E.63839
G1 F2327.3
G1 X100.705 Y81.131 E.01899
G1 X101.158 Y81.313 E.01652
G1 F2339.114
G1 X101.716 Y81.377 E.01901
G1 F2328.354
G1 X102.251 Y81.31 E.01825
G1 X102.809 Y81.097 E.02022
G1 F2394.788
G1 X103.225 Y80.795 E.0174
G1 F2385.296
G1 X116.534 Y67.488 E.63705
G1 F2127.695
G1 X117.011 Y67.011 E.02283
G1 F2073.247
G1 X117.064 Y66.92 E.00356
G1 F2065.459
G1 X117.861 Y63.945 E.10425
G1 F2053.799
G1 X120.608 Y66.692 E.1315
G1 F2064.359
G1 X117.633 Y67.489 E.10425
G1 F2072.173
G1 X117.542 Y67.542 E.00356
G1 F2126.8
G1 X117.065 Y68.019 E.02283
G1 F2385.285
G1 X103.733 Y81.358 E.63836
G1 F2327.304
G1 X103.421 Y81.826 E.01904
G1 X103.24 Y82.278 E.01648
G1 F2339.106
G1 X103.176 Y82.837 E.01905
G1 F2328.342
G1 X103.243 Y83.371 E.01822
G1 X103.456 Y83.93 E.02025
G1 F2394.788
G1 X103.758 Y84.346 E.0174
G1 F2385.296
G1 X117.065 Y97.655 E.63705
G1 F2127.696
G1 X117.537 Y98.127 E.02259
M204 S1000
G1 X117.863 Y98.984 F10800
;TYPE:Solid infill
G1 F8400
G1 X119.232 Y99.351 E.04798
G1 X118.23 Y100.353 E.04797
G1 X117.916 Y99.181 E.04107
G1 X118.491 Y99.549 E.02311
;WIDTH:0.453886
G1 X118.455 Y99.513 E.00174
G1 X118.406 Y99.526 E.00173
G1 X118.392 Y99.576 E.00177
G1 X118.429 Y99.612 E.00176
G1 X118.478 Y99.599 E.00173
;WIPE_START
G1 F8640
G1 X118.429 Y99.612 E-.01171
G1 X118.392 Y99.576 E-.01192
G1 X118.406 Y99.526 E-.01199
G1 X118.455 Y99.513 E-.01171
G1 X118.491 Y99.549 E-.01176
G1 X117.916 Y99.181 E-.15763
G1 X118.23 Y100.353 E-.28016
G1 X119.158 Y99.424 E-.30312
;WIPE_END
G1 Z.8 F10800
G1 X101.549 Y82.089
G1 Z.4
G1 E.8 F2100
;WIDTH:0.449999
G1 F8400
