; generated by PrusaSlicer 2.9.2 on 2025-11-04 at 13:36:04 UTC


;
;
; 

; external perimeters extrusion width = 0.45mm
; perimeters extrusion width = 0.45mm
; infill extrusion width = 0.45mm
; solid infill extrusion width = 0.45mm
; top infill extrusion width = 0.45mm
; support material extrusion width = 0.35mm
; first layer extrusion width = 0.45mm

M73 P0 R12
M73 Q0 S12
M201 X1000 Y1000 Z200 E5000 ; sets maximum accelerations, mm/sec^2
M203 X200 Y200 Z12 E120 ; sets maximum feedrates, mm / sec
M204 S1250 T1250 ; sets acceleration (S) and retract acceleration (R), mm/sec^2
M205 X8.00 Y8.00 Z0.40 E4.50 ; sets the jerk limits, mm/sec
M205 S0 T0 ; sets the minimum extruding and travel feed rate, mm/sec

; printing object UC_standard id:0 copy 0
; stop printing object UC_standard id:0 copy 0

;TYPE:Custom
M862.3 P "MK3S" ; printer model check
M862.1 P0.4 ; nozzle diameter check
M115 U3.13.2 ; tell printer latest fw version
G90 ; use absolute coordinates
M83 ; extruder relative mode
M104 S200 ; set extruder temp
M140 S55 ; set bed temp
M190 S55 ; wait for bed temp
M109 S200 ; wait for extruder temp
G28 W ; home all without mesh bed level
G80 X80.5325 Y60.5325 W44.2817 H44.2817 ; mesh bed levelling

G1 Z0.2 F720
G1 Y-3 F1000 ; go outside print area
G92 E0
G1 X60 E9 F1000 ; intro line
G1 X100 E12.5 F1000 ; intro line

G92 E0
M221 S95

; Don't change E values below. Excessive value can damage the printer.
M907 E430 ; set extruder motor current
G21 ; set units to millimeters
G90 ; use absolute coordinates
M83 ; use relative distances for extrusion
M900 K0.05 ; Filament gcode LA 1.5
M900 K30 ; Filament gcode LA 1.0

M107
;LAYER_CHANGE
;Z:0.2
;HEIGHT:0.2
G1 E-.8 F2100
G1 Z.6 F10800
G1 X81.501 Y64.799
G1 Z.2
G1 E.8 F2100
M204 S1000
;TYPE:Skirt/Brim
;WIDTH:0.45
G1 F2400
G1 X84.799 Y61.501 E.15787
G1 X86.645 Y60.736 E.06764
G1 X118.702 Y60.736 E1.08509
G1 X120.548 Y61.501 E.06764
M73 P1 R12
M73 Q1 S12
G1 X123.846 Y64.799 E.15787
G1 X124.611 Y66.645 E.06764
G1 X124.611 Y98.702 E1.08509
G1 X123.846 Y100.548 E.06764
G1 X120.548 Y103.846 E.15787
G1 X118.702 Y104.611 E.06764
G1 X86.645 Y104.611 E1.08509
G1 X84.799 Y103.846 E.06764
G1 X81.501 Y100.548 E.15787
G1 X80.736 Y98.702 E.06764
G1 X80.736 Y66.645 E1.08509
G1 X81.478 Y64.854 E.06562
G1 X81.789 Y65.087 F10800
G1 F2400
G1 X85.087 Y61.789 E.15787
G1 X86.645 Y61.143 E.05709
G1 X118.702 Y61.143 E1.08509
G1 X120.26 Y61.789 E.05709
G1 X123.558 Y65.087 E.15787
G1 X124.204 Y66.645 E.05709
G1 X124.204 Y98.702 E1.08509
G1 X123.558 Y100.26 E.05709
G1 X120.26 Y103.558 E.15787
G1 X118.702 Y104.204 E.05709
G1 X86.645 Y104.204 E1.08509
G1 X85.087 Y103.558 E.05709
G1 X81.789 Y100.26 E.15787
G1 X81.143 Y98.702 E.05709
G1 X81.143 Y66.645 E1.08509
G1 X81.766 Y65.142 E.05507
M73 P2 R12
M73 Q2 S12
;WIPE_START
G1 F8640
G1 X81.789 Y65.087 E-.01377
G1 X84.196 Y62.679 E-.78623
;WIPE_END
G1 Z.6 F10800
; printing object UC_standard id:0 copy 0
G1 X84.953 Y66.215
G1 Z.2
G1 E.8 F2100
;TYPE:Perimeter
;WIDTH:0.449999
G1 F2400
G1 X86.214 Y64.954 E.06036
G1 X86.706 Y66.706 E.0616
G1 X85.011 Y66.231 E.05958
;WIPE_START
G1 F8640
G1 X84.953 Y66.215 E-.01389
G1 X86.214 Y64.954 E-.41177
G1 X86.652 Y66.515 E-.37434
;WIPE_END
G1 Z.6 F10800
G1 X86.706 Y98.641
G1 Z.2
G1 E.8 F2100
G1 F2400
G1 X86.215 Y100.393 E.06159
G1 X84.953 Y99.132 E.06039
G1 X86.648 Y98.657 E.05958
;WIPE_START
G1 F8640
G1 X86.706 Y98.641 E-.01389
G1 X86.215 Y100.393 E-.42013
G1 X85.094 Y99.273 E-.36598
;WIPE_END
G1 Z.6 F10800
G1 X119.132 Y100.393
G1 Z.2
G1 E.8 F2100
G1 F2400
G1 X118.641 Y98.641 E.06159
G1 X120.393 Y99.132 E.06159
G1 X119.174 Y100.351 E.05835
;WIPE_START
G1 F8640
G1 X119.132 Y100.393 E-.01371
G1 X118.641 Y98.641 E-.42013
G1 X120.168 Y99.069 E-.36616
;WIPE_END
G1 Z.6 F10800
G1 X120.393 Y66.215
G1 Z.2
G1 E.8 F2100
G1 F2400
G1 X119.532 Y66.446 E.03017
G1 X118.641 Y66.706 E.03142
G1 X119.132 Y64.953 E.06162
G1 X120.351 Y66.172 E.05835
;WIPE_START
G1 F8640
G1 X120.393 Y66.215 E-.01388
G1 X119.532 Y66.446 E-.20584
G1 X118.641 Y66.706 E-.21431
G1 X119.069 Y65.18 E-.36597
;WIPE_END
G1 Z.6 F10800
G1 X101.612 Y81.617
G1 Z.2
G1 E.8 F2100
G1 F2400
G1 X102.125 Y81.772 E.01814
G1 X102.673 Y81.828 E.01865
G1 X103.183 Y81.775 E.01736
G1 X103.729 Y81.612 E.01929
G1 X103.575 Y82.125 E.01813
G1 X103.518 Y82.673 E.01865
G1 X103.571 Y83.183 E.01736
G1 X103.735 Y83.729 E.0193
G1 X103.221 Y83.575 E.01816
G1 X102.673 Y83.518 E.01865
G1 X102.163 Y83.571 E.01736
G1 X101.617 Y83.735 E.0193
G1 X101.772 Y83.221 E.01817
G1 X101.829 Y82.673 E.01865
G1 X101.775 Y82.163 E.01736
G1 X101.629 Y81.675 E.01724
G1 X101.251 Y81.85 F10800
;TYPE:External perimeter
G1 F2400
G1 X101.13 Y81.537 E.01136
;WIDTH:0.453618
G1 X100.823 Y81.116 E.01779
G1 X86.937 Y67.225 E.67074
;WIDTH:0.449998
G1 X86.851 Y67.173 E.0034
G1 X85.852 Y66.878 E.03526
G1 X84.167 Y66.425 E.05906
G1 X86.425 Y64.168 E.10806
G1 X86.869 Y65.822 E.05797
G1 X87.173 Y66.851 E.03632
G1 X87.225 Y66.937 E.0034
;WIDTH:0.453618
G1 X101.114 Y80.826 E.67077
;WIDTH:0.458257
G1 X101.233 Y80.926 E.00537
G1 X101.726 Y81.226 E.01993
;WIDTH:0.449999
G1 X102.17 Y81.367 E.01577
G1 X102.746 Y81.417 E.01957
G1 X103.265 Y81.34 E.01776
G1 X103.81 Y81.13 E.01977
;WIDTH:0.453619
G1 X104.23 Y80.823 E.01777
G1 X118.122 Y66.937 E.67077
;WIDTH:0.449999
G1 X118.173 Y66.851 E.00338
G1 X118.469 Y65.852 E.03527
G1 X118.922 Y64.167 E.05906
G1 X121.179 Y66.425 E.10807
G1 X119.638 Y66.839 E.05401
;WIDTH:0.449998
G1 X118.496 Y67.173 E.04027
G1 X118.41 Y67.225 E.0034
;WIDTH:0.453619
G1 X104.521 Y81.114 E.67077
;WIDTH:0.458257
G1 X104.42 Y81.233 E.00539
G1 X104.121 Y81.726 E.01991
;WIDTH:0.449999
G1 X103.98 Y82.17 E.01577
G1 X103.93 Y82.746 E.01957
G1 X104.007 Y83.265 E.01776
G1 X104.216 Y83.81 E.01976
;WIDTH:0.453618
G1 X104.523 Y84.23 E.01777
G1 X118.41 Y98.122 E.67079
;WIDTH:0.450831
G1 X118.496 Y98.174 E.00341
M73 P3 R12
M73 Q3 S12
G1 X119.495 Y98.469 E.03533
;WIDTH:0.449999
G1 X121.179 Y98.922 E.05903
G1 X118.922 Y101.179 E.10804
G1 X118.469 Y99.495 E.05903
;WIDTH:0.450831
G1 X118.174 Y98.496 E.03533
G1 X118.122 Y98.41 E.00341
;WIDTH:0.453618
G1 X104.233 Y84.521 E.67077
;WIDTH:0.456066
G1 X104.113 Y84.421 E.00537
G1 X103.62 Y84.121 E.01983
;WIDTH:0.449999
G1 X103.177 Y83.98 E.01574
G1 X102.601 Y83.93 E.01957
G1 X102.082 Y84.007 E.01776
G1 X101.537 Y84.216 E.01976
;WIDTH:0.453618
G1 X101.116 Y84.523 E.01779
G1 X87.225 Y98.41 E.67077
;WIDTH:0.450831
G1 X87.173 Y98.496 E.00341
G1 X86.878 Y99.495 E.03533
;WIDTH:0.449999
G1 X86.425 Y101.179 E.05903
G1 X84.167 Y98.922 E.10807
G1 X85.852 Y98.469 E.05906
;WIDTH:0.450831
G1 X86.851 Y98.174 E.03533
G1 X86.937 Y98.122 E.00341
;WIDTH:0.453618
G1 X100.826 Y84.233 E.67077
;WIDTH:0.456066
G1 X100.925 Y84.113 E.00534
G1 X101.226 Y83.62 E.01984
;WIDTH:0.449999
G1 X101.367 Y83.177 E.01574
G1 X101.417 Y82.601 E.01957
G1 X101.34 Y82.082 E.01776
G1 X101.272 Y81.906 E.00639
;WIPE_START
G1 F8640
G1 X101.251 Y81.85 E-.01381
G1 X101.13 Y81.537 E-.07748
G1 X100.823 Y81.116 E-.12031
G1 X99.021 Y79.314 E-.5884
;WIPE_END
G1 Z.6 F10800
G1 X103.4 Y82.733
G1 Z.2
G1 E.8 F2100
;TYPE:Solid infill
;WIDTH:0.519974
G1 F2400
G1 X102.794 Y82.127 E.034
G1 X102.671 Y82.134 E.00489
G1 X102.065 Y82.072 E.02416
G1 X103.265 Y83.272 E.06732
G1 X102.675 Y83.213 E.02352
G1 X102.538 Y83.221 E.00544
G1 X101.948 Y82.63 E.03313
;WIPE_START
G1 F8640
G1 X102.538 Y83.221 E-.19283
G1 X102.675 Y83.213 E-.03169
G1 X103.265 Y83.272 E-.13691
G1 X102.065 Y82.072 E-.39186
G1 X102.266 Y82.093 E-.04671
;WIPE_END
G1 Z.6 F10800
G1 X86.523 Y66.522
G1 Z.2
G1 E.8 F2100
;WIDTH:0.519257
G1 F2400
G1 X85.671 Y65.67 E.04772
;WIPE_START
G1 F8640
G1 X86.523 Y66.522 E-.27822
;WIPE_END
G1 E-.52178 F2100
G1 Z.6 F10800
G1 X119.137 Y65.401
G1 Z.2
G1 E.8 F2100
;WIDTH:0.464785
G1 F2400
G1 X119.797 Y66.061 E.03274
G1 X119.33 Y66.191 E.017
G1 X119.007 Y65.868 E.01602
;WIPE_START
G1 F8640
G1 X119.33 Y66.191 E-.10547
G1 X119.797 Y66.061 E-.11193
G1 X119.137 Y65.401 E-.21552
;WIPE_END
G1 E-.36708 F2100
G1 Z.6 F10800
G1 X119.677 Y99.676
G1 Z.2
G1 E.8 F2100
;WIDTH:0.51937
G1 F2400
G1 X118.825 Y98.823 E.04776
;WIPE_START
G1 F8640
G1 X119.677 Y99.676 E-.27838
;WIPE_END
G1 E-.52162 F2100
G1 Z.6 F10800
G1 X86.336 Y99.473
G1 Z.2
G1 E.8 F2100
;WIDTH:0.465779
G1 F2400
G1 X86.018 Y99.156 E.01579
G1 X85.55 Y99.286 E.01708
G1 X86.209 Y99.945 E.03277
M106 S84.15
;LAYER_CHANGE
;Z:0.4
;HEIGHT:0.2
;BEFORE_LAYER_CHANGE
G92 E0.0
;0.4


;WIPE_START
G1 F8640
G1 X85.55 Y99.286 E-.21519
G1 X86.018 Y99.156 E-.11215
G1 X86.336 Y99.473 E-.10368
;WIPE_END
G1 E-.36898 F2100
G1 Z.4 F10800
;AFTER_LAYER_CHANGE
;0.4
G1 Z.8
G1 X87.023 Y98.355
G1 Z.4
G1 E.8 F2100
M204 S800
;TYPE:Perimeter
;WIDTH:0.432585
G1 F2121.779
G1 X86.941 Y98.487 E.00503
;WIDTH:0.449999
G1 F2122.659
G1 X86.638 Y99.584 E.03852
G1 F2123.248
G1 X86.317 Y100.779 E.04188
G1 F2113.605
G1 X84.568 Y99.029 E.08375
G1 F2122.336
G1 X85.763 Y98.709 E.04187
G1 F2121.745
G1 X86.86 Y98.406 E.03852
;WIDTH:0.432585
G1 F2120.861
G1 X87.077 Y98.27 E.0083
G1 F2121.779
G1 X87.055 Y98.304 E.00131
M204 S1000
;WIPE_START
G1 F8640
G1 X87.023 Y98.355 E-.0139
G1 X86.941 Y98.487 E-.03588
G1 X86.638 Y99.584 E-.26279
G1 X86.317 Y100.779 E-.28571
G1 X85.699 Y100.161 E-.20172
;WIPE_END
G1 Z.8 F10800
G1 X100.961 Y84.386
G1 Z.4
G1 E.8 F2100
M204 S800
;WIDTH:0.403352
G1 F2400
G1 X100.898 Y84.449 E.00267
;WIDTH:0.38965
G1 X87.113 Y98.234 E.56205
;WIDTH:0.39026
G1 F2131.095
M73 P4 R12
M73 Q4 S12
G1 X87.077 Y98.27 E.00147
M204 S1000
;WIPE_START
G1 F8640
G1 X87.113 Y98.234 E-.01176
G1 X89.527 Y95.82 E-.78824
;WIPE_END
G1 Z.8 F10800
G1 X87.113 Y67.113
G1 Z.4
G1 E.8 F2100
M204 S800
;WIDTH:0.412632
G1 F2125.645
G1 X86.987 Y67.025 E.00472
;WIDTH:0.439424
G1 F2121.179
G1 X86.861 Y66.937 E.00507
;WIDTH:0.449999
G1 F2122.89
G1 X85.763 Y66.638 E.03852
G1 F2123.247
G1 X84.568 Y66.317 E.04188
G1 F2113.604
G1 X86.317 Y64.568 E.08372
G1 F2121.639
G1 X86.638 Y65.763 E.04188
G1 X86.937 Y66.86 E.03849
;WIDTH:0.439424
G1 F2119.56
G1 X87.025 Y66.987 E.00509
;WIDTH:0.412632
G1 F2124.052
G1 X87.079 Y67.064 E.00289
M204 S1000
;WIPE_START
G1 F8640
G1 X87.113 Y67.113 E-.01377
G1 X86.987 Y67.025 E-.03549
G1 X86.861 Y66.937 E-.03549
G1 X85.763 Y66.638 E-.26276
G1 X84.568 Y66.317 E-.28571
G1 X85.079 Y65.806 E-.16678
;WIPE_END
G1 Z.8 F10800
G1 X100.934 Y80.934
G1 Z.4
G1 E.8 F2100
M204 S800
;WIDTH:0.394084
G1 F2400
G1 X100.898 Y80.898 E.00149
;WIDTH:0.38965
G1 X87.113 Y67.113 E.56205
M204 S1000
;WIPE_START
G1 F8640
G1 X89.563 Y69.563 E-.8
;WIPE_END
G1 Z.8 F10800
G1 X119.029 Y64.568
G1 Z.4
G1 E.8 F2100
M204 S800
;WIDTH:0.449999
G1 F2113.603
G1 X120.779 Y66.317 E.08375
G1 F2122.336
G1 X119.584 Y66.638 E.04188
G1 F2121.977
G1 X118.486 Y66.937 E.03852
;WIDTH:0.439424
G1 F2120.261
G1 X118.36 Y67.025 E.00507
;WIDTH:0.412632
G1 F2124.742
G1 X118.234 Y67.113 E.00472
G1 F2125.646
G1 X118.322 Y66.987 E.00472
;WIDTH:0.439424
G1 F2121.18
G1 X118.409 Y66.86 E.00508
;WIDTH:0.449999
G1 F2122.89
G1 X118.709 Y65.763 E.0385
G1 F2123.248
G1 X119.014 Y64.626 E.03985
M204 S1000
;WIPE_START
G1 F8640
G1 X119.029 Y64.568 E-.01383
G1 X120.779 Y66.317 E-.57129
G1 X119.88 Y66.558 E-.21488
;WIPE_END
G1 Z.8 F10800
G1 X104.413 Y80.934
G1 Z.4
G1 E.8 F2100
M204 S800
;WIDTH:0.394084
G1 F2400
G1 X104.449 Y80.898 E.00149
;WIDTH:0.38965
G1 X118.234 Y67.113 E.56205
M204 S1000
;WIPE_START
G1 F8640
G1 X115.784 Y69.563 E-.8
;WIPE_END
G1 Z.8 F10800
G1 X104.367 Y80.98
G1 Z.4
G1 E.8 F2100
M204 S800
;WIDTH:0.449999
G1 F2400
G1 X104.04 Y81.437 E.01902
G1 X103.873 Y81.807 E.01374
G1 X103.74 Y82.364 E.01938
G1 X103.726 Y82.85 E.01646
G1 X103.831 Y83.435 E.02012
G1 X104.041 Y83.93 E.0182
G1 X104.386 Y84.386 E.01935
;WIDTH:0.406441
G1 X104.367 Y84.367 E.00081
;WIDTH:0.449999
G1 X103.91 Y84.04 E.01902
G1 X103.54 Y83.873 E.01374
G1 X102.983 Y83.74 E.01938
G1 X102.497 Y83.726 E.01646
G1 X101.911 Y83.831 E.02015
G1 X101.417 Y84.041 E.01817
G1 X100.979 Y84.367 E.01848
G1 X101.307 Y83.91 E.01904
G1 X101.474 Y83.54 E.01374
G1 X101.607 Y82.983 E.01938
G1 X101.62 Y82.493 E.01659
G1 X101.515 Y81.911 E.02002
G1 X101.306 Y81.417 E.01816
G1 X100.98 Y80.979 E.01848
G1 X101.437 Y81.307 E.01904
G1 X101.807 Y81.474 E.01374
G1 X102.36 Y81.606 E.01924
G1 X102.85 Y81.621 E.01659
G1 X103.435 Y81.515 E.02012
G1 X103.93 Y81.306 E.01819
G1 X104.319 Y81.016 E.01642
M204 S1000
;WIPE_START
G1 F8640
G1 X104.367 Y80.98 E-.01385
G1 X104.04 Y81.437 E-.12975
G1 X103.873 Y81.807 E-.09373
G1 X103.74 Y82.364 E-.13223
G1 X103.726 Y82.85 E-.11227
G1 X103.831 Y83.435 E-.13724
G1 X104.041 Y83.93 E-.12416
G1 X104.189 Y84.126 E-.05677
;WIPE_END
G1 Z.8 F10800
G1 X118.388 Y98.344
G1 Z.4
G1 E.8 F2100
M204 S800
;WIDTH:0.432585
G1 F2120.863
G1 X118.487 Y98.406 E.00378
;WIDTH:0.449999
G1 F2122.66
G1 X119.584 Y98.709 E.03852
G1 F2123.249
G1 X120.779 Y99.029 E.04187
G1 F2109.474
G1 X119.029 Y100.779 E.08377
G1 F2122.337
G1 X118.709 Y99.584 E.04187
G1 F2121.746
G1 X118.406 Y98.487 E.03852
;WIDTH:0.432585
G1 F2120.863
G1 X118.27 Y98.27 E.0083
G1 X118.337 Y98.312 E.00256
M204 S1000
;WIPE_START
G1 F8640
G1 X118.388 Y98.344 E-.0139
G1 X118.487 Y98.406 E-.02697
G1 X119.584 Y98.709 E-.26279
G1 X120.779 Y99.029 E-.28565
G1 X120.134 Y99.674 E-.21069
;WIPE_END
G1 Z.8 F10800
G1 X104.386 Y84.386
G1 Z.4
G1 E.8 F2100
M204 S800
;WIDTH:0.403354
G1 F2400
G1 X118.27 Y98.27 E.58846
M204 S1000
G1 X118.545 Y97.995 F10800
M204 S800
;TYPE:External perimeter
;WIDTH:0.449999
G1 F2073.248
G1 X118.59 Y98.021 E.00176
G1 F2065.46
G1 X121.565 Y98.818 E.10425
G1 F2048.81
G1 X118.818 Y101.565 E.1315
G1 F2064.358
M73 Q5 S12
G1 X118.021 Y98.59 E.10425
G1 F2072.172
G1 X117.969 Y98.499 E.00355
G1 F2126.799
G1 X117.491 Y98.022 E.02286
G1 F2385.285
G1 X104.152 Y84.69 E.63836
G1 F2327.304
M73 P5 R12
G1 X103.684 Y84.379 E.01902
G1 X103.232 Y84.197 E.01649
G1 F2339.107
G1 X102.673 Y84.133 E.01905
G1 F2328.351
G1 X102.139 Y84.2 E.01822
G1 X101.581 Y84.413 E.02022
G1 F2394.792
G1 X101.164 Y84.715 E.01743
G1 F2385.295
G1 X87.855 Y98.022 E.63705
G1 F2127.695
G1 X87.378 Y98.499 E.02283
G1 F2073.247
G1 X87.325 Y98.59 E.00356
G1 F2065.459
G1 X86.528 Y101.565 E.10425
G1 F2053.803
G1 X83.781 Y98.818 E.1315
G1 F2064.356
G1 X86.757 Y98.021 E.10428
G1 F2072.17
G1 X86.848 Y97.969 E.00355
G1 F2126.797
G1 X87.325 Y97.491 E.02286
G1 F2385.285
G1 X100.656 Y84.152 E.63834
G1 F2327.304
G1 X100.968 Y83.684 E.01904
G1 X101.149 Y83.232 E.01648
G1 F2337.754
G1 X101.214 Y82.675 E.01898
G1 F2328.776
G1 X101.147 Y82.14 E.01825
G1 X100.933 Y81.581 E.02026
G1 F2394.792
G1 X100.631 Y81.164 E.01743
G1 F2385.296
G1 X87.325 Y67.855 E.63702
G1 F2127.694
G1 X86.848 Y67.378 E.02283
G1 F2073.246
G1 X86.757 Y67.325 E.00356
G1 F2065.458
G1 X83.781 Y66.528 E.10428
G1 F2053.802
G1 X86.528 Y63.781 E.1315
G1 F2063.515
G1 X87.325 Y66.757 E.10428
G1 F2071.348
G1 X87.378 Y66.848 E.00356
G1 F2126.112
G1 X87.855 Y67.325 E.02283
G1 F2385.285
G1 X101.195 Y80.656 E.63836
G1 F2327.3
G1 X101.663 Y80.968 E.01904
G1 X102.115 Y81.149 E.01648
G1 F2339.114
G1 X102.673 Y81.214 E.01902
G1 F2328.354
G1 X103.208 Y81.147 E.01825
G1 X103.766 Y80.933 E.02023
G1 F2394.788
G1 X104.182 Y80.631 E.0174
G1 F2385.296
G1 X117.491 Y67.325 E.63702
G1 F2127.695
G1 X117.969 Y66.848 E.02286
G1 F2073.247
G1 X118.021 Y66.757 E.00355
G1 F2065.459
G1 X118.818 Y63.781 E.10428
G1 F2053.801
G1 X121.565 Y66.528 E.1315
G1 F2064.357
G1 X118.59 Y67.325 E.10425
G1 F2072.17
G1 X118.499 Y67.378 E.00356
G1 F2126.797
G1 X118.022 Y67.855 E.02283
G1 F2385.29
G1 X104.69 Y81.195 E.63839
G1 F2327.304
G1 X104.379 Y81.663 E.01902
G1 X104.197 Y82.115 E.01649
G1 F2339.106
G1 X104.133 Y82.673 E.01901
G1 F2328.342
G1 X104.2 Y83.208 E.01825
G1 X104.413 Y83.766 E.02022
G1 F2394.788
G1 X104.715 Y84.182 E.0174
G1 F2385.296
G1 X118.022 Y97.491 E.63705
G1 F2127.696
G1 X118.494 Y97.963 E.02259
M204 S1000
G1 X118.82 Y98.82 F10800
;TYPE:Solid infill
G1 F8400
G1 X120.189 Y99.187 E.04798
G1 X119.187 Y100.189 E.04797
G1 X118.873 Y99.017 E.04107
G1 X119.449 Y99.386 E.02315
;WIDTH:0.453886
G1 X119.412 Y99.349 E.00179
G1 X119.363 Y99.363 E.00174
G1 X119.349 Y99.412 E.00174
G1 X119.386 Y99.449 E.00179
G1 X119.435 Y99.435 E.00174
;WIPE_START
G1 F8640
G1 X119.386 Y99.449 E-.01177
G1 X119.349 Y99.412 E-.01208
